!!!!SEGMENT: pl-wtm--r-1542--005_stefani-jozef--msza-in-es-no-3-offertorium.krn
!!!cenid: 18xx:1781
!!!COM: Stefani, Józef
!!!COM-rism: pe30024097
!!!CDT: 1800/04/16-1876/03/19
!!!CNT: Polish
!!!OTL: Msza in Es No 3 – Offertorium
!!!PDT:
!!!AGN: Sacred; Mass
!!!SMS-siglum: PL-Wtm
!!!SMS-shelfmark: R 1542
!!!SMS-variant:
!!!SMS-altvar:
!!!NIFC-rismID: 1001120488
!!!OMD: Andantino.
!!!system-decoration: {(s1,s2,s3)}[(s4,s5)][(s6)][(s7)]{(s8,s9,s10)}{(s11,s12,s13)}{(s14,s15,s16,s17)}[(s18,s19)]
**kern	**dynam	**kern	**dynam	**kern	**text	**dynam	**kern	**text	**dynam	**kern	**text	**dynam	**kern	**text	**dynam	**kern	**dynam	**kern	**dynam	**kern	**dynam	**kern	**dynam	**kern	**kern	**dynam	**kern	**dynam	**kern	**dynam	**kern	**dynam	**kern	**dynam	**kern	**dynam	**kern	**dynam	**kern	**dynam
*part19	*part19	*part18	*part18	*part17	*part17	*part17	*part16	*part16	*part16	*part15	*part15	*part15	*part14	*part14	*part14	*part13	*part13	*part12	*part12	*part11	*part11	*part10	*part10	*part9	*part8	*part8	*part7	*part7	*part6	*part6	*part5	*part5	*part4	*part4	*part3	*part3	*part2	*part2	*part1	*part1
*staff19	*	*staff18	*	*staff17	*staff17	*	*staff16	*staff16	*	*staff15	*staff15	*	*staff14	*staff14	*	*staff13	*	*staff12	*	*staff11	*	*staff10	*	*staff9	*staff8	*	*staff7	*	*staff6	*	*staff5	*	*staff4	*	*staff3	*	*staff2	*	*staff1	*
*I"C: Basſi	*	*I"V:celli	*	*I"Basſo	*	*	*I"Tenore	*	*	*I"Alto	*	*	*I"Soprano	*	*	*I"Viole	*	*I"Violino	*	*I"Violini	*	*	*	*I"Tromboni	*	*	*I"Tympani F. B.	*	*I"Trombe in B.	*	*I"Fagotti	*	*I"Corni in Es	*	*I"Clarinetti in B.	*	*I"Oboe	*	*I"Flauti	*
*I'cb	*	*I'vc	*	*I'B.	*	*	*I'T.	*	*	*I'A.	*	*	*I'S.	*	*	*I'vle	*	*	*	*I'vl	*	*	*	*	*I'trbn	*	*I'timp	*	*I'tr	*	*I'fg	*	*I'cor	*	*I'cl	*	*I'ob	*	*I'fl	*
*clefF4	*	*clefF4	*	*clefF4	*	*	*clefC4	*	*	*clefG2	*	*	*clefG2	*	*	*clefC3	*	*clefG2	*	*clefG2	*	*clefF4	*	*clefC4	*clefC3	*	*clefF4	*	*clefG2	*	*clefF4	*	*clefG2	*	*clefG2	*	*clefG2	*	*clefG2	*
*ITrd0c0	*	*	*	*	*	*	*	*	*	*	*	*	*	*	*	*	*	*	*	*	*	*	*	*	*	*	*	*	*	*	*	*	*ITrd5c9	*	*ITrd1c2	*	*	*	*	*
*k[b-e-a-]	*	*k[b-e-a-]	*	*k[b-e-a-]	*	*	*k[b-e-a-]	*	*	*k[b-e-a-]	*	*	*k[b-e-a-]	*	*	*k[b-e-a-]	*	*k[b-e-a-]	*	*k[b-e-a-]	*	*k[b-e-a-]	*	*k[b-e-a-]	*k[b-e-a-]	*	*k[b-e-a-]	*	*k[b-e-a-]	*	*k[b-e-a-]	*	*k[b-e-a-]	*	*k[b-e-a-]	*	*k[b-e-a-]	*	*k[b-e-a-]	*
*M3/4	*	*M3/4	*	*M3/4	*	*	*M3/4	*	*	*M3/4	*	*	*M3/4	*	*	*M3/4	*	*M3/4	*	*M3/4	*	*M3/4	*	*M3/4	*M3/4	*	*M3/4	*	*M3/4	*	*M3/4	*	*M3/4	*	*M3/4	*	*M3/4	*	*M3/4	*
*>[A,B,C,C1,C,C2,D]	*	*>[A,B,C,C1,C,C2,D]	*	*>[A,B,C,C1,C,C2,D]	*	*	*>[A,B,C,C1,C,C2,D]	*	*	*>[A,B,C,C1,C,C2,D]	*	*	*>[A,B,C,C1,C,C2,D]	*	*	*>[A,B,C,C1,C,C2,D]	*	*>[A,B,C,C1,C,C2,D]	*	*>[A,B,C,C1,C,C2,D]	*	*>[A,B,C,C1,C,C2,D]	*	*>[A,B,C,C1,C,C2,D]	*>[A,B,C,C1,C,C2,D]	*	*>[A,B,C,C1,C,C2,D]	*	*>[A,B,C,C1,C,C2,D]	*	*>[A,B,C,C1,C,C2,D]	*	*>[A,B,C,C1,C,C2,D]	*	*>[A,B,C,C1,C,C2,D]	*	*>[A,B,C,C1,C,C2,D]	*	*>[A,B,C,C1,C,C2,D]	*
=1	=1	=1	=1	=1	=1	=1	=1	=1	=1	=1	=1	=1	=1	=1	=1	=1	=1	=1	=1	=1	=1	=1	=1	=1	=1	=1	=1	=1	=1	=1	=1	=1	=1	=1	=1	=1	=1	=1	=1	=1
*>A	*	*>A	*	*>A	*	*	*>A	*	*	*>A	*	*	*>A	*	*	*>A	*	*>A	*	*>A	*	*>A	*	*>A	*>A	*	*>A	*	*>A	*	*>A	*	*>A	*	*>A	*	*>A	*	*>A	*
*	*	*	*	*	*	*	*	*	*	*	*	*	*	*	*	*	*	*2\right	*	*2\right	*	*	*	*	*	*	*	*	*	*	*	*	*	*	*	*	*	*	*	*
!LO:TX:t=P:problem:all\right:global	!	!LO:TX:t=P:problem:all\right:global	!	!	!	!	!	!	!	!	!	!	!	!	!	!	!	!	!	!	!	!	!	!	!	!	!	!	!	!	!	!	!	!	!	!	!	!	!	!
!	!	!	!	!	!	!	!	!	!	!	!	!	!	!	!	!	!	!	!	!	!	!LO:TX:t=P:problem:all\right:global	!	!LO:TX:t=P:problem:all\right:global	!LO:TX:t=P:problem:all\right:global	!	!	!	!	!	!	!	!	!	!	!	!	!	!	!
!	!	!	!	!	!	!	!	!	!	!	!	!	!	!	!	!	!	!	!	!	!	!	!	!	!	!	!	!	!	!	!	!	!	!	!LO:TX:t=P:problem:all\right:global	!	!LO:TX:t=P:problem:all\right:global	!	!LO:TX:t=P:problem:all\right:global	!
!	!	!	!	!	!	!	!	!	!	!	!	!	!	!	!	!	!	!	!	!	!	!	!	!	!	!	!LO:TX:t=P:problem:all\right:global	!	!LO:TX:t=P:problem:all\right:global	!	!LO:TX:t=P:problem:all\right:global	!	!LO:TX:t=P:problem:all\right:global	!	!	!	!	!	!	!
!	!	!	!	!	!	!	!	!	!	!	!	!	!	!	!	!LO:TX:t=P:problem:all\right:global	!	!LO:TX:t=P:problem:all\right:global	!	!LO:TX:t=P:problem:all\right:global	!	!	!	!	!	!	!	!	!	!	!	!	!	!	!	!	!	!	!	!
!	!	!	!	!LO:TX:t=P:problem:all\right:global	!	!	!LO:TX:t=P:problem:all\right:global	!	!	!LO:TX:t=P:problem:all\right:global	!	!	!LO:TX:t=P:problem:all\right:global	!	!	!	!	!	!	!	!	!	!	!	!	!	!	!	!	!	!	!	!	!	!	!	!	!	!	!
!	!	!LO:TX:a:t=P:głosy C: Basſi i V:celli grają tą samą partię; w źródle zapisane na jednej pięciolinni:problem	!	!	!	!	!	!	!	!	!	!	!	!	!	!	!	!	!	!	!	!	!	!	!	!	!	!	!	!	!	!	!	!	!	!	!	!	!	!
!	!	!	!	!	!	!	!	!	!	!	!	!	!	!	!	!	!	!	!	!	!LO:DY:a:rj	!	!	!	!	!	!	!	!	!	!	!	!	!	!	!	!	!	!	!
2.ryy	.	2.r	.	2.r	.	.	2.r	.	.	2.r	.	.	2.r	.	.	2.r	.	4r	.	8r	p	2.r	.	2.r	2.r	.	2.ryy	.	2.r	.	2.r	.	2.r	.	2.r	.	2.r	.	2.r	.
.	.	.	.	.	.	.	.	.	.	.	.	.	.	.	.	.	.	.	.	(<8An/L	.	.	.	.	.	.	.	.	.	.	.	.	.	.	.	.	.	.	.	.
.	.	.	.	.	.	.	.	.	.	.	.	.	.	.	.	.	.	4r	.	8B-/	.	.	.	.	.	.	.	.	.	.	.	.	.	.	.	.	.	.	.	.
.	.	.	.	.	.	.	.	.	.	.	.	.	.	.	.	.	.	.	.	8d/	.	.	.	.	.	.	.	.	.	.	.	.	.	.	.	.	.	.	.	.
.	.	.	.	.	.	.	.	.	.	.	.	.	.	.	.	.	.	8r	.	8f/	.	.	.	.	.	.	.	.	.	.	.	.	.	.	.	.	.	.	.	.
.	.	.	.	.	.	.	.	.	.	.	.	.	.	.	.	.	.	(<8f/	p	8a-/J	.	.	.	.	.	.	.	.	.	.	.	.	.	.	.	.	.	.	.	.
=2	=2	=2	=2	=2	=2	=2	=2	=2	=2	=2	=2	=2	=2	=2	=2	=2	=2	=2	=2	=2	=2	=2	=2	=2	=2	=2	=2	=2	=2	=2	=2	=2	=2	=2	=2	=2	=2	=2	=2	=2
*^	*	*^	*	*	*	*	*	*	*	*	*	*	*	*	*	*	*	*	*	*	*	*	*	*	*	*	*	*	*	*	*	*	*	*	*	*	*	*	*	*
*2\right	*2\right	*	*2\right	*2\right	*	*	*	*	*2\right	*	*	*2\right	*	*	*2\right	*	*	*	*	*	*	*2\right	*	*	*	*	*	*	*	*	*	*	*	*	*	*	*	*	*	*	*	*
!	!	!LO:DY:a	!	!	!LO:DY:a	!	!	!	!	!	!	!	!	!	!	!	!	!	!	!	!	!	!	!	!	!	!	!	!	!	!	!	!	!	!	!	!	!	!	!	!	!
4r	2.rGG	p	4r	2.rGG	p	2.r	.	.	4r	.	.	4r	.	.	4r	.	.	4r	.	8a-/L	.	8cc/L	.	2.ryy	.	2.ryy	2.ryy	.	2.ryy	.	2.ryy	.	2.ryy	.	2.ryy	.	2.ryy	.	2.ryy	.	2.ryy	.
.	.	.	.	.	.	.	.	.	.	.	.	.	.	.	.	.	.	.	.	8g/	.	8b-/	.	.	.	.	.	.	.	.	.	.	.	.	.	.	.	.	.	.	.	.
8r	.	.	8r	.	.	.	.	.	4r	.	.	4r	.	.	4r	.	.	8r	.	8f/	.	8a-/	.	.	.	.	.	.	.	.	.	.	.	.	.	.	.	.	.	.	.	.
8B-/	.	.	8B-/	.	.	.	.	.	.	.	.	.	.	.	.	.	.	8B-/	.	8d/J)	.	8f/J)	.	.	.	.	.	.	.	.	.	.	.	.	.	.	.	.	.	.	.	.
[>4E-/	.	.	[>4E-/	.	.	.	.	.	8e-\	.	.	8e-/	.	.	8g/	W	.	4B- 4E-/	.	(<8e-/L	.	(<8g/L	.	.	.	.	.	.	.	.	.	.	.	.	.	.	.	.	.	.	.	.
.	.	.	.	.	.	.	.	.	8e-\	.	.	8f/	.	.	8a-/	nóg	.	.	.	8f/J)	.	8a-/J)	.	.	.	.	.	.	.	.	.	.	.	.	.	.	.	.	.	.	.	.
=3	=3	=3	=3	=3	=3	=3	=3	=3	=3	=3	=3	=3	=3	=3	=3	=3	=3	=3	=3	=3	=3	=3	=3	=3	=3	=3	=3	=3	=3	=3	=3	=3	=3	=3	=3	=3	=3	=3	=3	=3	=3	=3
!	!	!	!	!	!	!	!	!	!	!	!	!	!	!	!	!	!	!	!	!	!	!	!	!	!	!	!	!	!	!	!	!	!	!	!	!	!	!	!	!	!LO:TX:a:Bi:t=a.:problem:dopisane ołówkiem [oznaczenie to póżniej wykorzystywane do oznaczenia powtórek danych taktów, zastosowane dla wszystkich głosów]	!
!	!	!	!	!	!	!	!	!	!	!	!	!	!	!	!	!	!	!	!	!	!	!LO:TX:b:Bi:t=dolce	!	!	!	!	!	!	!	!	!	!	!	!	!	!	!	!	!	!	!	!
2.E-/_>	2.rGG	.	2.E-/_>	2.rGG	.	2.r	.	.	4e-\	.	.	8g/L	.	.	(>8b-\L	świę-	.	[>2.B- [<2.E-/	.	(<8g/L	.	(>8b-\L	.	2.ryy	.	2.ryy	2.ryy	.	2.ryy	.	2.ryy	.	2.ryy	.	2.ryy	.	2.ryy	.	2.ryy	.	2.ryy	.
.	.	.	.	.	.	.	.	.	.	.	.	8a-/J	.	.	8cc\J	.	.	.	.	8a-/J	.	8cc\J	.	.	.	.	.	.	.	.	.	.	.	.	.	.	.	.	.	.	.	.
.	.	.	.	.	.	.	.	.	4e-\	.	.	4g/	.	.	4b-\)	-tych	.	.	.	4g/)	.	4b-\)	.	.	.	.	.	.	.	.	.	.	.	.	.	.	.	.	.	.	.	.
.	.	.	.	.	.	.	.	.	4e-\	.	.	8a-/L	.	.	(>8cc\L	oł-	.	.	.	(<8a-/L	.	(>8cc\L	.	.	.	.	.	.	.	.	.	.	.	.	.	.	.	.	.	.	.	.
.	.	.	.	.	.	.	.	.	.	.	.	8f/J	.	.	8dd\J)	.	.	.	.	8f/J)	.	8dd\J)	.	.	.	.	.	.	.	.	.	.	.	.	.	.	.	.	.	.	.	.
=4	=4	=4	=4	=4	=4	=4	=4	=4	=4	=4	=4	=4	=4	=4	=4	=4	=4	=4	=4	=4	=4	=4	=4	=4	=4	=4	=4	=4	=4	=4	=4	=4	=4	=4	=4	=4	=4	=4	=4	=4	=4	=4
!	!	!	!	!	!	!	!	!	!	!	!	!	!	!	!	!	!	!LO:TX:a:t=P:w źródle tak jakby kontunuacja ligatur:problem	!	!	!	!	!	!	!	!	!	!	!	!	!	!	!	!	!	!	!	!	!	!	!	!
2.E-/]	2.rGG	.	2.E-/]	2.rGG	.	2.r	.	.	2e-\	.	.	2g/	.	.	2ee-\	-ta-	.	2.B-] 2.E-/]	.	2g/	.	(>2ee-\	.	2.ryy	.	2.ryy	2.ryy	.	2.ryy	.	2.ryy	.	2.ryy	.	2.ryy	.	2.ryy	.	2.ryy	.	2.ryy	.
.	.	.	.	.	.	.	.	.	4e-\	.	.	4g/	.	.	4b-\	-rzów	.	.	.	4g/	.	4b-\)	.	.	.	.	.	.	.	.	.	.	.	.	.	.	.	.	.	.	.	.
!!LO:PB:g=original
=5	=5	=5	=5	=5	=5	=5	=5	=5	=5	=5	=5	=5	=5	=5	=5	=5	=5	=5	=5	=5	=5	=5	=5	=5	=5	=5	=5	=5	=5	=5	=5	=5	=5	=5	=5	=5	=5	=5	=5	=5	=5	=5
(>4E-/	2.rGG	.	(>4E-/	2.rGG	.	4r	.	.	4.e-\	.	.	8g/L	.	.	8ee-\L	Twych	.	(<2E-/	.	(<8g/L	.	(>8ee-\L	.	2.r	.	2.r	2.r	.	2.r	.	2.ryy	.	2.r	.	2.r	.	2.r	.	2.r	.	2.r	.
.	.	.	.	.	.	.	.	.	.	.	.	8b-/	.	.	8dd\	.	.	.	.	8b-/	.	8dd\	.	.	.	.	.	.	.	.	.	.	.	.	.	.	.	.	.	.	.	.
8E-/L	.	.	8E-/L	.	.	8r	.	.	.	.	.	8a-/J	.	.	8cc\J	.	.	.	.	8a-/)	.	8cc\)	.	.	.	.	.	.	.	.	.	.	.	.	.	.	.	.	.	.	.	.
8G/	.	.	8G/	.	.	8G\	u-	.	8e-\	.	.	8g/	.	.	8b-\	u-	.	.	.	8g'</	.	8b-'>\	.	.	.	.	.	.	.	.	.	.	.	.	.	.	.	.	.	.	.	.
8A-/	.	.	8A-/	.	.	8A-\	-po-	.	8c\	.	.	8f/	.	.	8a-/	-po-	.	4c/)	.	8f'</	.	8a-'>\	.	.	.	.	.	.	.	.	.	.	.	.	.	.	.	.	.	.	.	.
8An/J)	.	.	8An/J)	.	.	8An\	-ko-	.	8c\	.	.	8e-/	.	.	8g/	-ko-	.	.	.	8e-'</J	.	8g'>\J	.	.	.	.	.	.	.	.	.	.	.	.	.	.	.	.	.	.	.	.
=6	=6	=6	=6	=6	=6	=6	=6	=6	=6	=6	=6	=6	=6	=6	=6	=6	=6	=6	=6	=6	=6	=6	=6	=6	=6	=6	=6	=6	=6	=6	=6	=6	=6	=6	=6	=6	=6	=6	=6	=6	=6	=6
*	*	*	*	*	*	*	*	*	*	*	*	*	*	*	*	*	*	*	*	*	*	*	*	*	*	*	*	*	*	*	*	*	*	*	*	*	*	*	*^	*	*	*
*	*	*	*	*	*	*	*	*	*	*	*	*	*	*	*	*	*	*	*	*	*	*	*	*	*	*	*	*	*	*	*	*	*2\right	*	*2\right	*	*2\right	*	*2\right	*2\right	*	*2\right	*
(>4B-\	4rCC	.	(>4B-\	4rCC	.	4B-\	-re-	.	4B-\	.	.	4e-/	.	.	4g/	-rze-	.	[<4B-/	.	4e-/	.	(<4g/	.	2.r	.	2.r	2.r	.	2.r	.	2.ryy	.	4r	.	4r	.	4r	.	4r	2.re	.	4r	.
8BB-/)	4rCC	.	8BB-/)	4rCC	.	8BB-/	-ni	.	8B-\	.	.	8d/	.	.	8f/	-ni	.	8B-/]	.	8d/	.	8f/)	.	.	.	.	.	.	.	.	.	.	4r	.	4r	.	4r	.	4r	.	.	4r	.
8r	.	.	8r	.	.	8r	.	.	8r	.	.	8r	.	.	8r	.	.	8r	.	8r	.	8r	.	.	.	.	.	.	.	.	.	.	.	.	.	.	.	.	.	.	.	.	.
!	!	!	!	!	!	!	!	!	!	!	!	!	!	!	!	!	!	!	!	!	!	!	!	!	!	!	!	!	!	!	!	!	!	!	!	!	!	!LO:DY:b:rj	!	!	!	!	!LO:DY:b:rj
4E-\	4ryy	.	4E-\	4ryy	.	8E-\	o-	.	8B-\	.	.	8e-/	.	.	8g/	o-	.	[<4B-/	.	(<8e-/L	.	(<8g/L	.	.	.	.	.	.	.	.	.	.	(>4B- 4G\	.	4e- 4E-/	.	(<8gL 8e-/	mf	(>8ee-\L	.	.	(>8gg\L	mf
.	.	.	.	.	.	8E-\	-fia-	.	8B-\	.	.	8f/	.	.	8a-/	-fia-	.	.	.	8f/J)	.	8a-/J)	.	.	.	.	.	.	.	.	.	.	.	.	.	.	8a-J 8f/)	.	8ff\J)	.	.	8aa-\J)	.
*v	*v	*	*v	*v	*	*	*	*	*	*	*	*	*	*	*	*	*	*	*	*	*	*	*	*	*	*	*	*	*	*	*	*	*	*	*	*	*	*	*	*	*	*	*
=7	=7	=7	=7	=7	=7	=7	=7	=7	=7	=7	=7	=7	=7	=7	=7	=7	=7	=7	=7	=7	=7	=7	=7	=7	=7	=7	=7	=7	=7	=7	=7	=7	=7	=7	=7	=7	=7	=7	=7	=7	=7
*	*	*	*	*	*	*	*^	*	*	*	*	*	*	*	*	*^	*	*	*	*	*	*	*	*	*	*	*	*	*	*	*^	*	*	*	*^	*	*	*	*	*	*
2E-\	.	2E-\	.	4E-\	-ru-	.	(>8B-\L	4rEEyy	.	.	(<8g/L	.	.	(>8b-\L	-ru-	.	8B-/L]	4rBByy	.	(<8g/L	.	(>8b-\L	.	2.r	.	2.r	2.r	.	2.r	.	2.ryy	.	8B-L 8G\	4rCCyy	.	[>2.e- [<2.E-/	.	(<8b-L 8g/	4rGyy	.	(>8gg\L	2.re	.	(>8bb-\L	.
.	.	.	.	.	.	.	8cJ 8A-\)	.	.	.	8a-/J)	.	.	8cc\J)	.	.	8cJ 8A-/	.	.	8a-/J)	.	8cc\J	.	.	.	.	.	.	.	.	.	.	8cJ 8A-\)	.	.	.	.	8ccJ 8a-/	.	.	8aa-\J	.	.	8ccc\J	.
.	.	.	.	4E-\	-iem	.	4B- 4G\	4rEEyy	.	.	4g/	.	.	4b-\	-iem	.	4B- 4G/	4rBByy	.	4g/	.	4b-\)	.	.	.	.	.	.	.	.	.	.	4B-/	4G\	.	.	.	4b- 4g/)	4rGyy	.	4gg\)	.	.	4bb-\)	.
4E-\	.	4E-\	.	4E-\	Ci	.	(>8c/L	4A-\	.	.	(<8a-/L	.	.	8cc\L	Ci	.	8c/L	4A-\	.	(<8a-/L	.	(>8cc\L	.	.	.	.	.	.	.	.	.	.	8c/L	4A-\	.	.	.	(>8cc/L	8a-\L	.	(>8aa-\L	.	.	(>8ccc\L	.
.	.	.	.	.	.	.	8B-/J)	.	.	.	8f/J)	.	.	8dd\J	.	.	8B-/J	.	.	8f/J)	.	8dd\J)	.	.	.	.	.	.	.	.	.	.	8B-/J	.	.	.	.	8dd/J)	8f\J	.	8ff\J)	.	.	8ddd\J)	.
*	*	*	*	*	*	*	*v	*v	*	*	*	*	*	*	*	*	*	*	*	*	*	*	*	*	*	*	*	*	*	*	*	*	*	*	*	*	*	*	*	*	*	*	*	*	*
=8	=8	=8	=8	=8	=8	=8	=8	=8	=8	=8	=8	=8	=8	=8	=8	=8	=8	=8	=8	=8	=8	=8	=8	=8	=8	=8	=8	=8	=8	=8	=8	=8	=8	=8	=8	=8	=8	=8	=8	=8	=8	=8	=8	=8
*	*	*	*	*	*	*	*	*	*	*	*	*	*	*	*	*	*	*	*	*	*	*	*	*	*	*	*	*^	*	*	*	*	*	*	*^	*	*	*	*	*	*	*	*	*
*	*	*	*	*	*	*	*	*	*	*	*	*	*	*	*	*	*	*	*	*	*	*	*	*	*	*	*	*2\right	*2\right	*	*	*	*	*	*	*	*	*	*	*	*	*	*	*	*	*
2E-\	.	2E-\	.	4E-\	Bo-	.	(>8.B-L 8.G\	.	.	4g/	.	.	(>8.ee-\L	Bo-	.	2B-/	8G\L	.	2g/	.	(>4ee-\	.	4r	.	4r	4r	.	4r	4ryy	.	2.ryy	.	2B-/	2G\	.	2e-] 2E-/]	4rFFyy	.	(>4ee-/	2g\	.	2gg\	4ryy	.	(>4eee-\	.
.	.	.	.	.	.	.	.	.	.	.	.	.	.	.	.	.	8E-\J	.	.	.	.	.	.	.	.	.	.	.	.	.	.	.	.	.	.	.	.	.	.	.	.	.	.	.	.	.
.	.	.	.	.	.	.	16e-\Jk)	.	.	.	.	.	16b-\Jk)	.	.	.	.	.	.	.	.	.	.	.	.	.	.	.	.	.	.	.	.	.	.	.	.	.	.	.	.	.	.	.	.	.
.	.	.	.	4E-\	-że	.	4e-\	.	.	4g/	.	.	4b-\	-że	.	.	4E-\	.	.	.	4b-\)	.	4r	.	4r	4r	.	4r	4ryy	.	.	.	.	.	.	.	4rFFyy	.	4b-/)	.	.	.	4ryy	.	4bb-\)	.
!	!LO:DY:b:rj	!	!LO:DY:b:rj	!	!	!	!	!	!LO:DY:b:rj	!	!	!	!	!	!LO:DY:a:rj	!	!	!LO:DY:b:rj	!	!LO:DY:b:rj	!	!LO:DY:b:rj	!	!LO:DY:a:rj	!	!	!	!	!	!LO:DY:a:rj	!	!	!	!	!	!	!	!LO:DY:b:rj	!	!	!LO:DY:b:rj	!	!	!LO:DY:b:rj	!	!LO:DY:b:rj
4D\	f	4D\	f	4D\	dar	.	4f\	.	f	4g/	.	.	4bn\	dar	f	4Bn 4D/	4rEEyy	f	4f 4G/	f	4bn\	f	4D\	f	4F/	4Bn/	.	4BB-/	4BB-\	f	.	.	4Bn/	4G\	.	4g/	4f\	f	4bX/	4g\	f	4gg/	4ff\	f	4bbn\	f
*	*	*	*	*	*	*	*	*	*	*	*	*	*	*	*	*v	*v	*	*	*	*	*	*	*	*	*	*	*	*	*	*	*	*	*	*	*	*	*	*	*	*	*	*	*	*	*
=9	=9	=9	=9	=9	=9	=9	=9	=9	=9	=9	=9	=9	=9	=9	=9	=9	=9	=9	=9	=9	=9	=9	=9	=9	=9	=9	=9	=9	=9	=9	=9	=9	=9	=9	=9	=9	=9	=9	=9	=9	=9	=9	=9	=9	=9
4C/	.	4C/	.	4C/	chle-	.	4e-\	.	.	4g/	.	.	8.cc\L	chle-	.	2c 2C/	.	2e- 2G/	.	(>8.cc\L	.	2C/	.	2E-/	2c/	.	2BB-/	2BB-\	.	2.ryy	.	2c/	2G\	.	2g/	2e-\	.	2cc/	2g\	.	2gg/	2ee-\	.	(>8.ccc\L	.
.	.	.	.	.	.	.	.	.	.	.	.	.	16ee-\Jk	.	.	.	.	.	.	16ee-\Jk)	.	.	.	.	.	.	.	.	.	.	.	.	.	.	.	.	.	.	.	.	.	.	.	16ddd\Jk)	.
4C/	.	4C/	.	4C/	-ba	.	4e-\	.	.	4g/	.	.	4ee-\	-ba	.	.	.	.	.	4ee-\	.	.	.	.	.	.	.	.	.	.	.	.	.	.	.	.	.	.	.	.	.	.	.	4eee-\	.
!	!LO:DY:b:rj	!	!LO:DY:b:rj	!	!	!	!	!	!LO:DY:b:rj	!	!	!LO:DY:b:rj	!	!	!LO:DY:a:rj	!	!	!	!	!	!LO:DY:a:rj	!	!	!	!	!	!	!	!	!	!	!	!	!LO:DY:b:rj	!	!	!LO:DY:b:rj	!	!	!LO:DY:b:rj	!	!	!LO:DY:b:rj	!	!LO:DY:b:rj
4F\	p	4F\	p	4F\	i	.	4e- 4c\	.	p	4f/	.	p	4an/	i	p	4F/	.	4e- 4c/	.	4an/	p	4r	.	4r	4r	.	4r	4ryy	.	.	.	4F/	4F\	p	4f/	4f\	p	4cc/	4a\	p	4ff/	4ee-\	p	4aan\	p
!!LO:PB:g=original
*	*	*	*	*	*	*	*	*	*	*	*	*	*	*	*	*	*	*	*	*	*	*	*	*	*	*	*	*	*	*	*	*v	*v	*	*	*	*	*	*	*	*	*	*	*	*
*	*	*	*	*	*	*	*	*	*	*	*	*	*	*	*	*	*	*	*	*	*	*	*	*	*	*	*v	*v	*	*	*	*	*	*v	*v	*	*	*	*	*	*	*	*	*
=10	=10	=10	=10	=10	=10	=10	=10	=10	=10	=10	=10	=10	=10	=10	=10	=10	=10	=10	=10	=10	=10	=10	=10	=10	=10	=10	=10	=10	=10	=10	=10	=10	=10	=10	=10	=10	=10	=10	=10	=10	=10	=10
4BB-/	.	4BB-/	.	4BB-/	.	.	(>8e-\L	.	.	4f/	.	.	(>8cc\L	wi-	.	4F/	.	(<8e-/L	.	(>8cc\L	.	4r	.	4r	4r	.	2ryy	.	4r	.	2F 2BB-/	.	2f 2B-/	.	8cc/L	(>8a\L	.	2ff/	8ee-\L	.	(>8ccc\L	.
.	.	.	.	.	.	.	8d\J)	.	.	.	.	.	8b-\J)	.	.	.	.	8dJ 8B-/)	.	8b-\J)	.	.	.	.	.	.	.	.	.	.	.	.	.	.	8b-/J	8b-\J)	.	.	8dd\J	.	8bb-\J	.
4B-\	.	4B-\	.	4BB-/	.	.	4d\	.	.	4f/	.	.	4b-\	-na	.	4F/	.	4d 4B-/	.	4b-\	.	4r	.	4r	4r	.	.	.	4r	.	.	.	.	.	4b-/	4b-\	.	.	4dd\	.	4bb-\)	.
*	*	*	*	*	*	*	*	*	*	*	*	*	*	*	*	*	*	*	*	*	*	*	*	*	*	*	*	*	*	*	*	*	*	*	*v	*v	*	*	*	*	*	*
=||	=||	=||	=||	=||	=||	=||	=||	=||	=||	=||	=||	=||	=||	=||	=||	=||	=||	=||	=||	=||	=||	=||	=||	=||	=||	=||	=||	=||	=||	=||	=||	=||	=||	=||	=||	=||	=||	=||	=||	=||	=||
*>B	*	*>B	*	*>B	*	*	*>B	*	*	*>B	*	*	*>B	*	*	*>B	*	*>B	*	*>B	*	*>B	*	*>B	*>B	*	*>B	*	*>B	*	*>B	*	*>B	*	*>B	*	*>B	*	*	*>B	*
*	*	*	*	*	*	*	*	*	*	*	*	*	*	*	*	*	*	*	*	*	*	*	*	*	*	*	*	*	*2\right	*	*	*	*	*	*	*	*	*	*	*	*
!	!	!	!	!	!	!	!	!	!	!	!	!	!	!	!	!	!	!	!	!	!	!	!	!	!	!	!	!	!	!	!	!	!	!	!	!	!	!	!	!LO:TX:a:Bi:t=B.:rj:problem:dopisane ołówkiem [oznaczenie to póżniej wykorzystywane do oznaczenia powtórek danych taktów, zastosowane dla wszystkich głosów]	!
!	!LO:DY:b:rj	!	!LO:DY:b:rj	!	!	!	!	!	!LO:DY:b:rj	!	!	!	!	!	!LO:DY:b:rj	!	!LO:DY:b:rj	!	!	!	!LO:DY:b:rj	!	!	!	!	!LO:DY:b:rj	!	!	!	!	!	!LO:DY:b:rj	!	!	!	!	!	!	!	!LO:DY:b:rj	!LO:DY:b:rj
8.B-\L	f	8.B-\L	f	8.B-\	.	.	8.B-\	.	f	8.b-\	.	.	8.b-\	Któ-	f	8.B-/L|	f	8.b-\L|	.	8.b-\L|	f	8.B-\L	.	8.B-\L	8.b-\L|	f	4ryy	.	8.b-X\L|	.	8.B-\L	f	4r	.	8.b-\L	.	8.bb-L 8.b-\|	4ryy	f	8.bb-\L|	f
16c\Jk	>	16c\Jk	>	16c\	.	.	16c\	.	.	16cc\	.	.	16cc\	-ry	.	16c/Jk|	.	16cc\Jk|	.	16cc\Jk|	.	16c\Jk	.	16c\Jk	16cc\Jk|	.	.	.	16cc\Jk|	.	16c\Jk	.	.	.	16cc\Jk	.	16cccJk 16cc\|	.	.	16ccc\Jk|	.
=11	=11	=11	=11	=11	=11	=11	=11	=11	=11	=11	=11	=11	=11	=11	=11	=11	=11	=11	=11	=11	=11	=11	=11	=11	=11	=11	=11	=11	=11	=11	=11	=11	=11	=11	=11	=11	=11	=11	=11	=11	=11
*	*	*	*	*	*	*	*	*	*	*	*	*	*	*	*	*	*	*	*	*	*	*	*	*	*	*	*	*	*	*	*^	*	*	*	*^	*	*	*	*	*	*
!	!	!	!	!	!	!	!	!	!	!	!	!	!	!	!	!	!	!	!	!	!	!	!	!	!	!	!	!	!	!	!	!	!	!	!	!	!	!	!	!	!	!LO:TX:a:Bi:t=1:problem:dopisane ołówkiem [oznaczenie to póżniej wykorzystywane do oznaczenia powtórek danych taktów, zastosowane dla wszystkich głosów]	!
!	!LO:DY:b:rj	!	!LO:DY:b:rj	!	!	!	!	!	!	!	!	!	!	!	!	!	!	!	!	!	!LO:DY:a:rj	!	!	!	!	!	!	!	!	!	!	!	!	!	!LO:DY:b:rj	!	!	!	!	!	!	!	!
2B-\	] p	2B-\	] p	4B-\	.	.	4B-\	.	.	4b-\	.	.	4b-\	sło-	.	4B-/|	.	4b-\|	.	(>4b-\|	p	4B-\	.	4B-\	4b-\	.	2.ryy	.	4b-\	.	(>2B-/	(<2B-\	p	2.B- 2.BB-/	p	(>4b-/	4b-\	.	(>4bb-\|	4b-\	.	4bb-\|	.
!	!	!	!	!	!	!LO:DY:a:rj	!	!	!	!	!	!	!	!	!LO:DY:b:rj	!	!LO:DY:b:rj	!	!LO:DY:b:rj	!	!	!	!	!	!	!	!	!	!	!	!	!	!	!	!	!	!	!	!	!	!LO:DY:b:rj	!	!LO:DY:b:rj
.	.	.	.	4B-\	.	p	4B-\	.	.	4a-/	.	.	4cc\	-wy	p	(<2B-/	p	(<4a-/	p	4cc\	.	4r	.	4r	4r	.	.	.	4r	.	.	.	.	.	.	4cc/	4a-\	.	4aa-\	4cc\	p	(>4ccc\	p
4BB-/	.	4BB-/	.	4BB-/	.	.	4B-\	.	.	4f/	.	.	4dd\	Ka-	.	.	.	4f/	.	4dd\)	.	4r	.	4r	4r	.	.	.	4r	.	4A-/)	4BB-\)	.	.	.	4dd/	4f\	.	4ff/)	4dd\	.	4ddd\	.
=12	=12	=12	=12	=12	=12	=12	=12	=12	=12	=12	=12	=12	=12	=12	=12	=12	=12	=12	=12	=12	=12	=12	=12	=12	=12	=12	=12	=12	=12	=12	=12	=12	=12	=12	=12	=12	=12	=12	=12	=12	=12	=12	=12
!	!	!	!	!	!	!	!	!	!	!	!	!	!	!	!	!	!	!	!	!	!	!	!	!	!	!	!	!	!	!	!	!	!	!	!	!	!	!	!	!	!	!LO:TX:a:Bi:t=2:problem:dopisane ołówkiem [oznaczenie to póżniej wykorzystywane do oznaczenia powtórek danych taktów, zastosowane dla wszystkich głosów]	!
2E-\	.	2E-\	.	4E-\	.	.	4B-\	.	.	4g/	.	.	(>8.ee-\L	-pła-	.	2B- 2E-/)	.	2g/)	.	(>8.ee-\L	.	4r	.	4r	4r	.	2.ryy	.	4r	.	2G/	2E-\	.	2B- 2E-/	.	4ee-/)	2g\	.	2gg/	2ee-\	.	4eee-\	.
.	.	.	.	.	.	.	.	.	.	.	.	.	16b-\Jk)	.	.	.	.	.	.	16b-\Jk)	.	.	.	.	.	.	.	.	.	.	.	.	.	.	.	.	.	.	.	.	.	.	.
.	.	.	.	4E-\	.	.	4B-\	.	.	4g/	.	.	4b-\	-na	.	.	.	.	.	4b-\	.	4r	.	4r	4r	.	.	.	4r	.	.	.	.	.	.	4b-/	.	.	.	.	.	4bb-\)	.
!	!LO:DY:b:rj	!	!LO:DY:b:rj	!	!	!LO:DY:a:rj	!	!	!	!	!	!	!	!	!	!	!LO:DY:b:rj	!	!LO:DY:b:rj	!	!LO:DY:b:rj	!	!	!	!	!	!	!	!	!	!	!	!LO:DY:b:rj	!	!	!	!	!	!	!	!LO:DY:b:rj	!	!LO:DY:b:rj
8.B-'>\L	f	8.B-'>\L	f	8.B-\	.	f	8.B-\	.	.	8.b-\	.	.	8.b-\	w Kró-	.	8.B-/L|	f	8.b-\L|	f	8.b-\L|	f	8.B-\L	.	8.B-\L	8.b-\L	.	.	.	8.b-\L	.	8.B-\L	4rEEyy	f	4r	.	8.b-\L|	4rGyy	.	8.bb-L 8.b-\|	4rcyy	f	8.bb-\L|	f
16c'>\Jk	>	16c'>\Jk	>	16c\	.	.	16B-\	.	.	16cc\	.	.	16cc\	-tce	.	16c/Jk|	.	16cc\Jk|	.	16cc\Jk|	.	16c\Jk	.	16c\Jk	16cc\Jk	.	.	.	16cc\Jk	.	16c\Jk	.	.	.	.	16cc\Jk|	.	.	16cccJk 16cc\|	.	.	16ccc\Jk|	.
=13	=13	=13	=13	=13	=13	=13	=13	=13	=13	=13	=13	=13	=13	=13	=13	=13	=13	=13	=13	=13	=13	=13	=13	=13	=13	=13	=13	=13	=13	=13	=13	=13	=13	=13	=13	=13	=13	=13	=13	=13	=13	=13	=13
!	!	!	!	!	!	!	!	!	!	!	!	!	!	!	!	!	!	!	!	!	!	!	!	!	!	!	!	!	!	!	!	!	!	!	!	!	!	!	!	!	!	!LO:TX:a:Bi:t=3:problem:dopisane ołówkiem [oznaczenie to póżniej wykorzystywane do oznaczenia powtórek danych taktów, zastosowane dla wszystkich głosów]	!
!	!	!	!	!	!	!LO:DY:b	!	!	!	!	!	!	!	!	!	!	!	!	!	!	!LO:DY:a:rj	!	!	!	!	!	!	!	!	!	!	!	!LO:DY:b:rj	!	!LO:DY:b:rj	!	!	!	!	!	!	!	!
2B-\	] p	2B-\	] p	2B-\	.	p	2B-\	.	.	4b-/	.	.	(>4b-\	się	.	4B-/|	.	4b-\|	.	(>4b-\|	p	4B-\	.	4B-\	4b-\	.	2.ryy	.	4b-\	.	2B-\	2ryy	p	2.B- 2.BB-/	p	4ryy	4b-\	.	4bb-\|	4b-\	.	4bb-\|	.
!	!	!	!	!	!	!	!	!	!	!	!	!	!	!	!LO:DY:a:rj	!	!LO:DY:b:rj	!	!LO:DY:b:rj	!	!	!	!	!	!	!	!	!	!	!	!	!	!	!	!	!	!	!	!	!	!LO:DY:b:rj	!	!LO:DY:b:rj
.	.	.	.	.	.	.	.	.	.	4a-/	.	.	4cc\)	.	p	(<[<4B-/	p	2a-/	p	4cc\	.	4r	.	4r	4r	.	.	.	4r	.	.	.	.	.	.	4cc/	2a-\	.	(>4aa-/	4cc\	p	(>4ccc\	p
4BB-/	.	4BB-/	.	4BB-/	.	.	4A-\	.	.	4f/	.	.	4dd\	za-	.	4f 4B-/])	.	.	.	4dd\)	.	4r	.	4r	4r	.	.	.	4r	.	4f 4A-/	4BB-\	.	.	.	4dd/	.	.	4aa-/	4dd\	.	4ddd\	.
=14	=14	=14	=14	=14	=14	=14	=14	=14	=14	=14	=14	=14	=14	=14	=14	=14	=14	=14	=14	=14	=14	=14	=14	=14	=14	=14	=14	=14	=14	=14	=14	=14	=14	=14	=14	=14	=14	=14	=14	=14	=14	=14	=14
*	*	*	*	*	*	*	*	*	*	*	*	*	*	*	*	*	*	*	*	*	*	*	*	*	*	*	*	*	*^	*	*	*	*	*	*	*	*	*	*	*	*	*	*
[<4C/	.	[<4C/	.	4C/	.	.	4G/	.	.	4e-/	.	.	4ee-\	-mie-	.	2e- 2c\	.	2g/	.	(>2ee-\	.	4r	.	4r	4r	.	2.ryy	.	4r	4rcyy	.	2e-\	2C\	.	2G 2E-/	.	2ee-/	2g\	.	2gg/)	2ee-\	.	2eee-\)	.
4C/]	.	4C/]	.	4C/	.	.	4G/	.	.	4g/	.	.	4ee-\	-ni	.	.	.	.	.	.	.	4r	.	4r	4r	.	.	.	4r	4rcyy	.	.	.	.	.	.	.	.	.	.	.	.	.	.
4D/	.	4D/	.	4D/	.	.	4f\	.	.	4g/	.	.	4bn^>\	w praw-	.	4f 4d^<\	.	4g^</	.	4bn^>\)	.	4D\	.	4Bn\	4f\	.	.	.	4g/	4g\	.	4d\	4D\	.	4G/	.	4bX/	4f\	.	4gg/	4ff\	.	4bbn^>\	.
=15	=15	=15	=15	=15	=15	=15	=15	=15	=15	=15	=15	=15	=15	=15	=15	=15	=15	=15	=15	=15	=15	=15	=15	=15	=15	=15	=15	=15	=15	=15	=15	=15	=15	=15	=15	=15	=15	=15	=15	=15	=15	=15	=15	=15
*	*	*	*	*	*	*	*	*	*	*	*	*	*	*	*	*	*	*	*	*	*	*	*	*	*	*	*	*	*	*	*	*	*	*	*^	*	*	*	*	*	*	*	*	*
4E-\	.	4E-\	.	2E-\	.	.	2e-\	.	.	2g/	.	.	2cc\	-dzi-	.	8r	.	8r	.	8r	.	2E-\	.	2c\	2e-\	.	2.ryy	.	2.g/	2.g\	.	2.c/	2E-\	.	2.G/	2.G\	.	2cc/	2e-\	.	(>2gg/	2ee-\	.	(>2ccc\	.
.	.	.	.	.	.	.	.	.	.	.	.	.	.	.	.	8e-\L	.	8g/L	.	8cc\L	.	.	.	.	.	.	.	.	.	.	.	.	.	.	.	.	.	.	.	.	.	.	.	.	.
4r	.	4r	.	.	.	.	.	.	.	.	.	.	.	.	.	8e-\	.	8g/	.	8cc\	.	.	.	.	.	.	.	.	.	.	.	.	.	.	.	.	.	.	.	.	.	.	.	.	.
.	.	.	.	.	.	.	.	.	.	.	.	.	.	.	.	8e-\J	.	8g/J	.	8cc\J	.	.	.	.	.	.	.	.	.	.	.	.	.	.	.	.	.	.	.	.	.	.	.	.	.
8En\	.	8En\	.	4En\	.	.	4c\	.	.	4g/	.	.	4b-X\	-wą	.	8r	.	8r	.	8r	.	4En\	.	4B-\	4en\	.	.	.	.	.	.	.	4En\	.	.	.	.	4b-/	4g\	.	4gg/	4cc\	.	4bb-X\	.
8r	.	8r	.	.	.	.	.	.	.	.	.	.	.	.	.	8c\	.	8g/	.	8b-X\	.	.	.	.	.	.	.	.	.	.	.	.	.	.	.	.	.	.	.	.	.	.	.	.	.
!!LO:LB:g=original
*	*	*	*	*	*	*	*	*	*	*	*	*	*	*	*	*	*	*	*	*	*	*	*	*	*	*	*	*	*	*	*	*v	*v	*	*	*	*	*	*	*	*	*	*	*	*
=16	=16	=16	=16	=16	=16	=16	=16	=16	=16	=16	=16	=16	=16	=16	=16	=16	=16	=16	=16	=16	=16	=16	=16	=16	=16	=16	=16	=16	=16	=16	=16	=16	=16	=16	=16	=16	=16	=16	=16	=16	=16	=16	=16	=16
4F\	.	4F\	.	4.F\	.	.	4.c\	.	.	4.f/	.	.	4.a-/	krew	.	8r	.	8r	.	8r	.	4.F\	.	4.B-\	4.f\	.	2.ryy	.	4.f/	4.f\	.	4.c 4.F\	.	4.A-/	4.A-\	.	4.a-/	4.f\	.	4.ff/	4.cc\)	.	4.aa-\)	.
.	.	.	.	.	.	.	.	.	.	.	.	.	.	.	.	8c'>\L	.	8f'</L	.	8a-'</L	p	.	.	.	.	.	.	.	.	.	.	.	.	.	.	.	.	.	.	.	.	.	.	.
8r	.	8r	.	.	.	.	.	.	.	.	.	.	.	.	.	8c'>\J	.	8f'</J	.	8a-'</J	.	.	.	.	.	.	.	.	.	.	.	.	.	.	.	.	.	.	.	.	.	.	.	.
!	!LO:DY:b:rj	!	!LO:DY:b:rj	!	!	!	!	!	!	!	!	!	!	!	!	!	!	!	!	!	!	!	!	!	!	!	!	!	!	!	!	!	!LO:DY:b:rj	!	!	!	!	!	!LO:DY:b:rj	!	!	!	!	!LO:DY:b:rj
(>8F\L	p	(>8F\L	p	8F\	.	.	8A-\	.	.	8a-/	.	.	8cc/	i	.	(>8A-/L	.	(<8a-/L	.	(<8cc/L	.	8r	.	8r	8r	.	.	.	8r	8rAyy	.	(>8A-L 8F\	p	8r	8rCyy	.	(>8cc/L	8a-\L	p	8aa-/L	8r	.	(>8ccc\L	p
8G\	.	8G\	.	8G\L	.	.	8B-\	.	.	8g/	.	.	8b-/	cia-	.	8B-/	.	8g/	.	8b-/	.	4r	.	4r	4r	.	.	.	4r	4rAyy	.	8B- 8G\	.	4r	4rCyy	.	8b-/	8g\	.	8gg/	4r	.	8bb-\	.
8A-\J)	.	8A-\J)	.	8A-\J	.	.	8c\	.	.	8f/	.	.	8a-/	-ło	.	8c/J)	.	8f/J)	.	8a-/J)	.	.	.	.	.	.	.	.	.	.	.	8cJ 8A-\)	.	.	.	.	8a-/J)	8f\J	.	8ff/J	.	.	8aa-\J)	.
*	*	*	*	*	*	*	*	*	*	*	*	*	*	*	*	*	*	*	*	*	*	*	*	*	*	*	*	*	*	*	*	*	*	*v	*v	*	*	*	*	*	*	*	*	*
*	*	*	*	*	*	*	*	*	*	*	*	*	*	*	*	*	*	*	*	*	*	*	*	*	*	*	*	*	*v	*v	*	*	*	*	*	*v	*v	*	*	*	*	*	*
=17	=17	=17	=17	=17	=17	=17	=17	=17	=17	=17	=17	=17	=17	=17	=17	=17	=17	=17	=17	=17	=17	=17	=17	=17	=17	=17	=17	=17	=17	=17	=17	=17	=17	=17	=17	=17	=17	=17	=17	=17	=17
*	*	*	*	*	*	*	*	*	*	*	*	*	*	*	*	*	*	*	*	*	*	*	*	*	*	*	*	*	*	*	*^	*	*	*	*	*	*	*	*	*	*
8B-\	.	8B-\	.	8B-\	.	.	8B-\	.	.	8e-/	.	.	8g/	Bo-	.	8B-/L	.	8e-/L	.	8g/L	.	2.r	.	2.r	2.r	.	2.ryy	.	2.r	.	2B-/	2B-\	.	4r	.	(>8gL 8e-/	.	(>8ee-/L	[<2.b-\	p	(>8gg\L	.
8r	.	8r	.	8B-\	.	.	8B-\	.	.	8g/	.	.	8b-/	-ga	.	8B-/J	.	8g/J	.	8b-/J	.	.	.	.	.	.	.	.	.	.	.	.	.	.	.	8b-J 8g/	.	8gg/J	.	.	8bb-\J	.
8B-\	.	8B-\	.	4B-\	.	.	4B-\	.	.	4f/	.	.	4a-/	Twe-	.	8r	.	8r	.	8r	.	.	.	.	.	.	.	.	.	.	.	.	.	4r	p	4a- 4f/	.	4ff/	.	.	4aa-\	.
8r	.	8r	.	.	.	.	.	.	.	.	.	.	.	.	.	8B-/	.	8f/	.	8a-/	.	.	.	.	.	.	.	.	.	.	.	.	.	.	.	.	.	.	.	.	.	.
8BB-/	.	8BB-/	.	4BB-/	.	.	4B-\	.	.	4d/	.	.	4f/	-go	.	8r	.	8r	.	8r	.	.	.	.	.	.	.	.	.	.	4B-\	4BB-\	.	4B- 4BB-/	.	4f 4d/)	.	4dd/	.	.	4ff\	.
8r	.	8r	.	.	.	.	.	.	.	.	.	.	.	.	.	8B-/	.	8d/	.	8f/	.	.	.	.	.	.	.	.	.	.	.	.	.	.	.	.	.	.	.	.	.	.
*	*	*	*	*	*	*	*	*	*	*	*	*	*	*	*	*	*	*	*	*	*	*	*	*	*	*	*	*	*	*	*v	*v	*	*	*	*	*	*	*	*	*	*
=18	=18	=18	=18	=18	=18	=18	=18	=18	=18	=18	=18	=18	=18	=18	=18	=18	=18	=18	=18	=18	=18	=18	=18	=18	=18	=18	=18	=18	=18	=18	=18	=18	=18	=18	=18	=18	=18	=18	=18	=18	=18
2E-\	.	2E-\	.	4E-\	.	.	4B-\	.	.	(<8.f/L	.	.	(<8.a-/L	Sy-	.	2B-/	.	(<8.f/L	.	(<8.a-/L	.	4r	.	4r	4r	.	2.ryy	.	4r	.	2B- 2E-\	.	2G 2E-/	.	(<8.a-L 8.f/	.	(>8.ff/L)	2b-\]	.	(>8.aa-\L)	.
.	.	.	.	.	.	.	.	.	.	16e-/Jk)	.	.	16g/Jk)	.	.	.	.	16e-/Jk)	.	16g/Jk)	.	.	.	.	.	.	.	.	.	.	.	.	.	.	16gJk 16e-/)	.	16ee-/Jk)	.	.	16gg\Jk)	.
.	.	.	.	4E-\	.	.	4B-\	.	.	4e-/	.	.	4g/	-na	.	.	.	4e-/	.	4g/	.	4r	.	4r	4r	.	.	.	4r	.	.	.	.	.	4g 4e-/	.	4ee-/	.	.	4gg'>\	.
!	!LO:DY:b:rj	!	!LO:DY:b:rj	!	!	!	!	!	!	!	!	!	!	!	!	!	!LO:DY:b:rj	!	!LO:DY:b:rj	!	!LO:DY:b:rj	!	!	!	!	!LO:DY:b:rj	!	!	!	!LO:DY:b:rj	!	!LO:DY:b:rj	!	!	!	!LO:DY:b:rj	!	!	!	!	!LO:DY:b:rj
8.B-\L	f	8.B-\L	f	8.B-\	.	.	8.B-\	.	.	8.b-\	.	.	8.b-\	Któ-	.	8.B-/L|	f	8.b-\L	f	8.b-\L|	f	8.B-\L	.	8.B-'>\L	8.b-\L|	f	.	.	8.b-\L|	f	8.B-\L|	f	4r	.	8.b-\L	f	8.bb-L 8.b-\|	4rAyy	.	8.bb-\L|	f
16B-\Jk	.	16B-\Jk	.	16c\	.	.	16c\	.	.	16cc\	.	.	16cc\	-ry	.	16c/Jk|	.	16cc\Jk	.	16cc\Jk|	.	16c\Jk	.	16c\Jk|	16cc\Jk|	.	.	.	16cc\Jk|	.	16c\Jk|	.	.	.	16cc\Jk	.	16cccJk 16cc\|	.	.	16ccc\Jk|	.
=19	=19	=19	=19	=19	=19	=19	=19	=19	=19	=19	=19	=19	=19	=19	=19	=19	=19	=19	=19	=19	=19	=19	=19	=19	=19	=19	=19	=19	=19	=19	=19	=19	=19	=19	=19	=19	=19	=19	=19	=19	=19
*	*	*	*	*	*	*	*	*	*	*	*	*	*	*	*	*	*	*	*	*	*	*	*	*	*	*	*	*	*	*	*^	*	*	*	*^	*	*	*	*	*	*
!LO:TX:a:t=P:w źródle takty 19-21 niewidoczne, odpowiednio oznaczone ołówkiem jako powtórka:problem	!	!LO:TX:a:t=P:w źródle takty 19-21 niewidoczne, odpowiednio oznaczone ołówkiem jako powtórka:problem	!	!	!	!	!	!	!	!	!	!	!	!	!	!	!	!	!	!	!	!	!	!	!	!	!	!	!	!	!	!	!	!	!	!	!	!	!	!	!	!	!
!	!	!	!	!	!	!	!	!	!	!	!	!	!	!	!	!	!	!	!	!	!	!	!	!	!	!	!	!	!	!	!	!	!	!	!	!	!	!	!	!	!	!LO:TX:a:Bi:t=1:problem:dla wszystkich głosów, których to dotyczy	!
!	!	!	!	!	!	!	!	!	!	!	!	!	!	!	!	!	!	!	!	!	!	!	!	!	!	!	!	!	!	!	!	!	!	!	!	!	!	!	!LO:TX:a:t=P:w źródle takty 19-21 niewidoczne, odpowiednio oznaczone ołówkiem jako powtórka:problem	!	!	!LO:TX:a:t=P:w źródle takty 19-21 niewidoczne, odpowiednio oznaczone ołówkiem jako powtórka:problem	!
!	!	!	!	!	!	!	!	!	!	!	!	!	!	!	!	!	!	!	!	!	!	!	!	!	!	!	!	!	!	!	!LO:TX:a:t=P:w źródle takty 19-21 niewidoczne, odpowiednio oznaczone ołówkiem jako powtórka:problem	!	!	!LO:TX:a:t=P:w źródle takty 19-21 niewidoczne, odpowiednio oznaczone ołówkiem jako powtórka:problem	!	!LO:TX:a:t=P:w źródle takty 19-21 niewidoczne, odpowiednio oznaczone ołówkiem jako powtórka:problem	!	!	!	!	!	!	!
!	!	!	!	!	!	!	!	!	!	!	!	!	!	!	!	!LO:TX:a:t=P:w źródle takty 19-21 niewidoczne, odpowiednio oznaczone ołówkiem jako powtórka:problem	!	!LO:TX:a:t=P:w źródle takty 19-21 niewidoczne, odpowiednio oznaczone ołówkiem jako powtórka:problem	!	!LO:TX:a:t=P:w źródle takty 19-21 niewidoczne, odpowiednio oznaczone ołówkiem jako powtórka:problem	!	!	!	!	!	!	!	!	!	!	!	!	!	!	!	!	!	!	!	!	!	!	!
!	!	!	!	!	!	!	!	!	!	!	!	!	!	!	!	!	!	!	!	!	!	!	!	!	!	!	!	!	!LO:TX:a:t=P:w źródle takty 19-21 niewidoczne, odpowiednio oznaczone ołówkiem jako powtórka:problem	!	!	!	!	!	!	!	!	!	!	!	!	!	!
!	!	!	!	!	!	!	!	!	!	!	!	!	!	!	!	!	!	!	!	!	!	!	!	!	!	!	!LO:TX:a:t=P:w źródle takty 19-21 niewidoczne, odpowiednio oznaczone ołówkiem jako powtórka:problem	!	!	!	!	!	!	!	!	!	!	!	!	!	!	!	!
!	!	!	!	!	!	!	!	!	!	!	!	!	!	!	!	!	!	!	!	!	!	!LO:TX:a:t=P:w źródle takty 19-21 niewidoczne, odpowiednio oznaczone ołówkiem jako powtórka:problem	!	!LO:TX:a:t=P:w źródle takty 19-21 niewidoczne, odpowiednio oznaczone ołówkiem jako powtórka:problem	!LO:TX:a:t=P:w źródle takty 19-21 niewidoczne, odpowiednio oznaczone ołówkiem jako powtórka:problem	!	!	!	!	!	!	!	!	!	!	!	!	!	!	!	!	!	!
!	!LO:DY:b:rj	!	!LO:DY:b:rj	!	!	!	!	!	!	!	!	!	!	!	!	!	!	!	!	!	!LO:DY:a:rj	!	!	!	!	!	!	!	!	!	!	!	!	!	!LO:DY:b:rj	!	!	!	!	!	!	!	!
2B-\yy	p	2B-\yy	p	4B-\	.	.	4B-\	.	.	4b-\	.	.	4b-\	sło-	.	4B-/yy|	.	4b-\yy|	.	(>4b-\yy|	p	4B-\yy	.	4B-\yy	4b-\yy	.	2.ryy	.	4b-\yy	.	(>2B-/yy	(<2B-\yy	p	2.B-yy 2.BB-/yy	p	(>4b-/yy	4b-\yy	.	(>4bb-\yy|	4b-\yy	.	4bb-\yy|	.
!	!	!	!	!	!	!	!	!	!	!	!	!	!	!	!	!	!LO:DY:b:rj	!	!LO:DY:b:rj	!	!	!	!	!	!	!	!	!	!	!	!	!	!	!	!	!	!	!	!	!	!LO:DY:b:rj	!	!LO:DY:b:rj
.	.	.	.	4B-\	.	.	4B-\	.	.	4a-/	.	.	4cc\	-wy	.	(2<B-/yy	p	(<4a-/yy	p	4cc\yy	.	4ryy	.	4ryy	4ryy	.	.	.	4ryy	.	.	.	.	.	.	4cc/yy	4a-\yy	.	4aa-\yy	4cc\yy	p	(>4ccc\yy	p
4BB-/yy	.	4BB-/yy	.	4BB-/	.	.	4B-\	.	.	4f/	.	.	4dd\	Ka-	.	.	.	4f/yy	.	4dd\)yy	.	4ryy	.	4ryy	4ryy	.	.	.	4ryy	.	4A-/)yy	4BB-\)yy	.	.	.	4dd/yy	4f\yy	.	4ff/)yy	4dd\yy	.	4ddd\yy	.
=20	=20	=20	=20	=20	=20	=20	=20	=20	=20	=20	=20	=20	=20	=20	=20	=20	=20	=20	=20	=20	=20	=20	=20	=20	=20	=20	=20	=20	=20	=20	=20	=20	=20	=20	=20	=20	=20	=20	=20	=20	=20	=20	=20
!	!	!	!	!	!	!	!	!	!	!	!	!	!	!	!	!	!	!	!	!	!	!	!	!	!	!	!	!	!	!	!	!	!	!	!	!	!	!	!	!	!	!LO:TX:a:Bi:t=2:problem:dla wszystkich głosów, których to dotyczy	!
2E-\yy	.	2E-\yy	.	4E-\	.	.	4B-\	.	.	4g/	.	.	(>8.ee-\L	-pła-	.	2B-yy 2E-/)yy	.	2g/)yy	.	(>8.ee-\Lyy	.	4ryy	.	4ryy	4ryy	.	2.ryy	.	4ryy	.	2G/yy	2E-\yy	.	2B-yy 2E-/yy	.	4ee-/)yy	2g\yy	.	2gg/yy	2ee-\yy	.	4eee-\yy	.
.	.	.	.	.	.	.	.	.	.	.	.	.	16b-\Jk)	.	.	.	.	.	.	16b-\Jk)yy	.	.	.	.	.	.	.	.	.	.	.	.	.	.	.	.	.	.	.	.	.	.	.
.	.	.	.	4E-\	.	.	4B-\	.	.	4g/	.	.	4b-\	-na	.	.	.	.	.	4b-\yy	.	4ryy	.	4ryy	4ryy	.	.	.	4ryy	.	.	.	.	.	.	4b-/yy	.	.	.	.	.	4bb-\)yy	.
!	!LO:DY:b:rj	!	!LO:DY:b:rj	!	!	!	!	!	!	!	!	!	!	!	!	!	!LO:DY:b:rj	!	!LO:DY:b:rj	!	!LO:DY:b:rj	!	!	!	!	!	!	!	!	!	!	!	!LO:DY:b:rj	!	!	!	!	!	!	!	!LO:DY:b:rj	!	!LO:DY:b:rj
8.B-'>\Lyy	f	8.B-'>\Lyy	f	8.B-\	.	.	8.B-\	.	.	8.b-\	.	.	8.b-\	w Kró-	.	8.B-/Lyy|	f	8.b-\Lyy|	f	8.b-\Lyy|	f	8.B-\Lyy	.	8.B-\Lyy	8.b-\Lyy	.	.	.	8.b-\Lyy	.	8.B-\Lyy	4ryy	f	4ryy	.	8.b-\Lyy|	4rGyyyy	.	8.bb-Lyy 8.b-\yy|	4rcyy	f	8.bb-\Lyy|	f
16c'>\Jkyy	>	16c'>\Jkyy	>	16c\	.	.	16c\	.	.	16cc\	.	.	16cc\	-tce	.	16c/Jkyy|	.	16cc\Jkyy|	.	16cc\Jkyy|	.	16c\Jkyy	.	16c\Jkyy	16cc\Jkyy	.	.	.	16cc\Jkyy	.	16c\Jkyy	.	.	.	.	16cc\Jkyy|	.	.	16cccJkyy 16cc\yy|	.	.	16ccc\Jkyy|	.
!!LO:PB:g=original
=21	=21	=21	=21	=21	=21	=21	=21	=21	=21	=21	=21	=21	=21	=21	=21	=21	=21	=21	=21	=21	=21	=21	=21	=21	=21	=21	=21	=21	=21	=21	=21	=21	=21	=21	=21	=21	=21	=21	=21	=21	=21	=21	=21
!	!	!	!	!	!	!	!	!	!	!	!	!	!	!	!	!	!	!	!	!	!	!	!	!	!	!	!	!	!	!	!	!	!	!	!	!	!	!	!	!	!	!LO:TX:a:Bi:t=3:problem:dla wszystkich głosów, których to dotyczy	!
!	!LO:DY:b:rj	!	!LO:DY:b:rj	!	!	!	!	!	!	!	!	!	!	!	!	!	!	!	!	!	!LO:DY:a:rj	!	!	!	!	!	!	!	!	!	!	!	!	!	!LO:DY:b:rj	!	!	!	!	!	!	!	!
2B-\yy	] p	2B-\yy	] p	2B-\	się	.	2B-\	.	.	(<4b-/	.	.	(>4b-\	się	.	4B-/yy|	.	4b-\yy|	.	(>4b-\yy|	p	4B-\yy	.	4B-\yy	4b-\yy	.	2.ryy	.	4b-\yy	.	2B-\yy	2ryy	p	2.B-yy 2.BB-/yy	p	4ryy	4b-\yy	.	4bb-\yy|	4b-\yy	.	4bb-\yy|	.
!	!	!	!	!	!	!	!	!	!	!	!	!	!	!	!	!	!LO:DY:b:rj	!	!LO:DY:b:rj	!	!	!	!	!	!	!	!	!	!	!	!	!	!	!	!	!	!	!	!	!	!LO:DY:b:rj	!	!LO:DY:b:rj
.	.	.	.	.	.	.	.	.	.	4a-/)	.	.	4cc\)	.	.	(<[<4B-/yy	p	2a-/yy	p	4cc\yy	.	4ryy	.	4ryy	4ryy	.	.	.	4ryy	.	.	.	.	.	.	4cc/yy	2a-\yy	.	4aa-/yy	4cc\yy	p	4ccc\yy	p
4BB-/yy	.	4BB-/yy	.	4BB-/	za-	.	4A-\	.	.	4f/	.	.	4dd\	za-	.	4fyy 4B-/])yy	.	.	.	4dd\)yy	.	4ryy	.	4ryy	4ryy	.	.	.	4ryy	.	4fyy 4A-/yy	4BB-\yy	.	.	.	4dd/yy	.	.	4aa-/yy	4dd\yy	.	4ddd\yy	.
=22	=22	=22	=22	=22	=22	=22	=22	=22	=22	=22	=22	=22	=22	=22	=22	=22	=22	=22	=22	=22	=22	=22	=22	=22	=22	=22	=22	=22	=22	=22	=22	=22	=22	=22	=22	=22	=22	=22	=22	=22	=22	=22	=22
2C/	.	2C/	.	4BB-/	-mie-	.	4G/	.	.	4e-/	.	.	4ee-\	-mie-	.	2e- 2c\	.	2g/	.	2ee-\	.	4r	.	4r	4r	.	2.ryy	.	4r	.	2e-\	2C\	.	2G 2E-/	.	2ee-/	2g\	.	(>2gg/	2ee-\	.	2eee-\	.
.	.	.	.	4C/	-ni	.	4G/	.	.	4g/	.	.	4ee-\	-ni	.	.	.	.	.	.	.	4r	.	4r	4r	.	.	.	4r	.	.	.	.	.	.	.	.	.	.	.	.	.	.
4D/	.	4D/	.	4D/	w praw-	.	4f\	.	.	(<8.a-X/L	.	.	4bn\	w praw-	.	4f 4d\	.	(<8.a-/L	.	4bn\	.	(>4D\	.	(>4Bn\	(>4f\	.	.	.	(<8.a-X/L	.	4d\	4D\	.	4r	.	4bX/	4f\	.	8.aa-/L)	4ff\	.	(>4bbn\	.
.	.	.	.	.	.	.	.	.	.	16g/Jk)	.	.	.	.	.	.	.	16g/Jk)	.	.	.	.	.	.	.	.	.	.	16g/Jk)	.	.	.	.	.	.	.	.	.	16gg/Jk	.	.	.	.
=23	=23	=23	=23	=23	=23	=23	=23	=23	=23	=23	=23	=23	=23	=23	=23	=23	=23	=23	=23	=23	=23	=23	=23	=23	=23	=23	=23	=23	=23	=23	=23	=23	=23	=23	=23	=23	=23	=23	=23	=23	=23	=23	=23
*	*	*	*	*	*	*	*	*	*	*	*	*	*	*	*	*	*	*	*	*	*	*	*	*	*	*	*	*	*^	*	*	*	*	*^	*	*	*	*	*	*	*	*	*
4E-\	.	4E-\	.	2E-\	-dzi-	.	2d\	.	.	2g/	.	.	2cc\	-dzi-	.	8r	.	8r	.	8r	.	2E-\	.	(>2.c\)	(>2.e-\)	.	2.ryy	.	2g/	2g\	.	(>2.c/	2E-\	.	4r	4rCyy	.	2cc/	2.e-\	.	2gg/	2ee-\	.	2ccc\	.
.	.	.	.	.	.	.	.	.	.	.	.	.	.	.	.	8e-L 8c\	.	8g/L	.	8cc\L	.	.	.	.	.	.	.	.	.	.	.	.	.	.	.	.	.	.	.	.	.	.	.	.	.
4r	.	4r	.	.	.	.	.	.	.	.	.	.	.	.	.	8e- 8c\	.	8g/	.	8cc\	.	.	.	.	.	.	.	.	.	.	.	.	.	.	4r	4rCyy	.	.	.	.	.	.	.	.	.
.	.	.	.	.	.	.	.	.	.	.	.	.	.	.	.	8e-J 8c\	.	8g/J	.	8cc\J	.	.	.	.	.	.	.	.	.	.	.	.	.	.	.	.	.	.	.	.	.	.	.	.	.
(>8F\L	.	(>8F\L	.	(>8F\L	-wą	.	4c\	.	.	4e-/	.	.	4an/	-wą	.	8r	.	16r	.	8r	.	8F\L	.	.	.	.	.	.	4r	4ryy	.	.	8F\L	.	8f/L	8f\L	.	4a/	.	.	4ee-/	4cc\	.	4aan\)	.
.	.	.	.	.	.	.	.	.	.	.	.	.	.	.	.	.	.	16r	.	.	.	.	.	.	.	.	.	.	.	.	.	.	.	.	.	.	.	.	.	.	.	.	.	.	.
8F#X\J)	.	8F#X\J)	.	8F#X\J)	.	.	.	.	.	.	.	.	.	.	.	8c\	.	8e-/	.	8an/	.	8F#X\J)	.	.	.	.	.	.	.	.	.	.	8F#X\J	.	8f#X/J	8f#\J	.	.	.	.	.	.	.	.	.
*	*	*	*	*	*	*	*	*	*	*	*	*	*	*	*	*	*	*	*	*	*	*	*	*	*	*	*	*	*v	*v	*	*	*	*	*	*	*	*	*	*	*	*	*	*	*
=24	=24	=24	=24	=24	=24	=24	=24	=24	=24	=24	=24	=24	=24	=24	=24	=24	=24	=24	=24	=24	=24	=24	=24	=24	=24	=24	=24	=24	=24	=24	=24	=24	=24	=24	=24	=24	=24	=24	=24	=24	=24	=24	=24	=24
8G\	.	8G\	.	8G\	Krew	.	8B-\	.	.	8d/	.	.	8b-/	Krew	.	8r	.	8r	.	8r	.	8G\	.	8B-\)	8d\)	.	2.ryy	.	2.r	.	8B-/)	8G\	.	8g/	8g\	.	8b- 8d/	4ryy	.	8dd/	8b-\	.	8bb-\	.
8r	.	8r	.	8G\	i	.	8B-\	.	.	8d/	.	.	8b-/	i	.	8B-/	.	8d/	.	8b-^</	.	8r	.	8r	8r	.	.	.	.	.	8r	8r	.	8r	8rCyy	.	8r	.	.	8r	8rAyy	.	8r	.
8G\	.	8G\	.	4G\	cia-	.	4B-\	.	.	4d/	.	.	4d/	cia-	.	8r	.	8r	.	8r	.	4r	.	4r	4r	.	.	.	.	.	(>2B-/	4G\	.	4g/	4g\	.	4rdd	4re	.	(>4dd/	2b-\	.	4r	.
8r	.	8r	.	.	.	.	.	.	.	.	.	.	.	.	.	8B-/	.	8d/	.	8d/	.	.	.	.	.	.	.	.	.	.	.	.	.	.	.	.	.	.	.	.	.	.	.	.
!	!LO:DY:b:rj	!	!LO:DY:b:rj	!	!	!	!	!	!	!	!	!	!	!	!	!	!	!	!	!	!	!	!	!	!	!	!	!	!	!	!	!	!	!	!	!	!	!	!	!	!	!	!	!
4G-X^<\	sf	4G-X^<\	sf	4G-X\	-ło	.	4B-\	.	.	4c/	.	.	4en/	-ło	.	8r	.	8r	.	8r	.	4r	.	4r	4r	.	.	.	.	.	.	4G-X\	.	4g-X/	4g-\	.	4cc/	4re	.	4een/	.	.	4r	.
.	.	.	.	.	.	.	.	.	.	.	.	.	.	.	.	8B-/	.	8c^</	.	8en^</	f	.	.	.	.	.	.	.	.	.	.	.	.	.	.	.	.	.	.	.	.	.	.	.
=25	=25	=25	=25	=25	=25	=25	=25	=25	=25	=25	=25	=25	=25	=25	=25	=25	=25	=25	=25	=25	=25	=25	=25	=25	=25	=25	=25	=25	=25	=25	=25	=25	=25	=25	=25	=25	=25	=25	=25	=25	=25	=25	=25	=25
*	*	*	*	*	*	*	*	*	*	*	*	*	*	*	*	*	*	*	*	*	*	*	*	*	*	*	*	*	*^	*	*	*	*	*	*	*	*	*	*	*	*	*	*	*
!	!LO:HP:b	!	!LO:HP:b	!	!	!	!	!	!	!	!	!	!	!	!LO:DY:a	!	!	!	!	!	!	!	!	!	!	!	!	!	!	!	!	!	!	!	!	!	!	!	!	!	!	!	!	!	!
(>4.F\	<	(>4.F\	<	4.F\	Bo-	.	4.An\	.	.	4.c/	.	.	4.f/	Bo-	<	8r	.	8r	.	8r	.	2.r	.	2.r	2.r	.	2.ryy	.	4r	4rcyy	.	4.An/)	4.F\	.	4.f/	4.f\	.	4.cc/	2.re	.	4.ff/	4.an\	.	4r	.
.	.	.	.	.	.	.	.	.	.	.	.	.	.	.	.	8An'</L	.	8c'</L	.	8f'</L	<	.	.	.	.	.	.	.	.	.	.	.	.	.	.	.	.	.	.	.	.	.	.	.	.
.	.	.	.	.	.	.	.	.	.	.	.	.	.	.	.	(<8A/	.	(<8c/	.	(<8f/	.	.	.	.	.	.	.	.	4r	4rcyy	.	.	.	.	.	.	.	.	.	.	.	.	.	4r	.
8Gn\L	.	8Gn\L	.	8Gn\	-ga	.	8B-\	.	.	8d-X/	.	.	8en/	-ga	.	8B-/	.	8d-X/	.	8en/	.	.	.	.	.	.	.	.	.	.	.	(>8G\L	8ryy	.	8r	8rCyy	.	8dd-X/L	.	.	8een/L	8b-\L	.	.	.
8An\	.	8An\	.	8An\	Twe-	.	8c\	.	.	8c/	.	.	8f/	Twe-	.	8A/	.	8c/	.	8f/	.	.	.	.	.	.	.	.	(>8f/L	4f\	.	8A\	4ryy	.	4r	4rCyy	.	8cc/	.	.	8ff/	8cc\	.	(>8ff\L	f
8B-\J)	[[	8B-\J)	[[	8B-\	-go	.	8d\	.	.	8f/	.	.	8g/	-go	[[	8B-/J)	.	8dn/J)	.	8g/J)	[[	.	.	.	.	.	.	.	8g/J	.	.	8B-\J	.	.	.	.	.	8ddJ 8b-/	.	.	8gg/J)	8dd\J	.	8gg\J	.
*	*	*	*	*	*	*	*	*	*	*	*	*	*	*	*	*	*	*	*	*	*	*	*	*	*	*	*	*	*	*	*	*v	*v	*	*	*	*	*	*	*	*	*	*	*	*
*	*	*	*	*	*	*	*	*	*	*	*	*	*	*	*	*	*	*	*	*	*	*	*	*	*	*	*	*	*	*	*	*	*	*v	*v	*	*	*	*	*	*	*	*	*
=26	=26	=26	=26	=26	=26	=26	=26	=26	=26	=26	=26	=26	=26	=26	=26	=26	=26	=26	=26	=26	=26	=26	=26	=26	=26	=26	=26	=26	=26	=26	=26	=26	=26	=26	=26	=26	=26	=26	=26	=26	=26	=26	=26
!	!	!	!	!	!	!	!	!	!	!	!	!	!	!	!	!	!	!	!	!	!	!	!	!	!	!	!	!	!LO:SIC:v:s=4an/	!	!	!	!	!	!	!	!	!	!	!	!	!	!
!	!LO:DY:b:rj	!	!LO:DY:b:rj	!	!	!	!	!	!	!	!	!	!	!	!LO:DY:a:rj	!	!	!	!	!	!	!	!LO:DY:b:rj	!	!	!LO:DY:b:rj	!	!	!	!	!	!	!	!	!	!	!	!	!	!	!	!	!
8c\	f	8c\	f	(>2c\	Sy-	.	2.c\	.	.	2f/	.	.	(>4an/	Sy-	f	8r	.	8r	.	8r	.	2.C/	f	4An/	2f\	f	2.ryy	.	4a-/	2f\	.	2c\)	.	2.r	.	(>4a/	2f\	.	2ff/	2cc\	.	4aan\	.
!	!	!	!	!	!	!	!	!	!	!	!	!	!	!	!	!	!	!	!	!	!LO:DY:b:rj	!	!	!	!	!	!	!	!	!	!	!	!	!	!	!	!	!	!	!	!	!	!
8r	.	8r	.	.	.	.	.	.	.	.	.	.	.	.	.	8c\	.	8f/	.	8an/	f	.	.	.	.	.	.	.	.	.	.	.	.	.	.	.	.	.	.	.	.	.	.
*	*	*	*	*	*	*	*	*	*	*	*	*	*	*	*	*rep	*	*	*	*	*	*	*	*	*	*	*	*	*	*	*	*	*	*	*	*	*	*	*	*	*	*	*
8c\	.	8c\	.	.	.	.	.	.	.	.	.	.	4g/	.	.	8r	.	8r	.	8r	.	.	.	2G/	.	.	.	.	4g/	.	.	.	.	.	.	4g/	.	.	.	.	.	4gg\	.
8r	.	8r	.	.	.	.	.	.	.	.	.	.	.	.	.	8c\	.	8f/	.	8g/	.	.	.	.	.	.	.	.	.	.	.	.	.	.	.	.	.	.	.	.	.	.	.
*	*	*	*	*	*	*	*	*	*	*	*	*	*	*	*	*Xrep	*	*	*	*	*	*	*	*	*	*	*	*	*	*	*	*	*	*	*	*	*	*	*	*	*	*	*
*	*	*	*	*	*	*	*	*	*	*	*	*	*	*	*	*rep	*	*	*	*	*	*	*	*	*	*	*	*	*	*	*	*	*	*	*	*	*	*	*	*	*	*	*
8C/	.	8C/	.	4C/)	.	.	.	.	.	4en/	.	.	4cc\)	.	.	8r	.	8r	.	8r	.	.	.	.	4en\	.	.	.	4cc/	4en\	.	4C/	.	.	.	4cc/	4eX\	.	4een/	4g\	.	4ccc\	.
8r	.	8r	.	.	.	.	.	.	.	.	.	.	.	.	.	8c\	.	8en/	.	8cc\	.	.	.	.	.	.	.	.	.	.	.	.	.	.	.	.	.	.	.	.	.	.	.
*	*	*	*	*	*	*	*	*	*	*	*	*	*	*	*	*Xrep	*	*	*	*	*	*	*	*	*	*	*	*	*	*	*	*	*	*	*	*	*	*	*	*	*	*	*
!!LO:PB:g=original
*	*	*	*	*	*	*	*	*	*	*	*	*	*	*	*	*	*	*	*	*	*	*	*	*	*	*	*	*	*	*	*	*	*	*	*	*	*	*	*v	*v	*	*	*
=27	=27	=27	=27	=27	=27	=27	=27	=27	=27	=27	=27	=27	=27	=27	=27	=27	=27	=27	=27	=27	=27	=27	=27	=27	=27	=27	=27	=27	=27	=27	=27	=27	=27	=27	=27	=27	=27	=27	=27	=27	=27	=27
4F\	.	4F\	.	4F\	-na	.	4F/	.	.	4f/	.	.	4f/	-na	.	8F/	.	4f/	.	8f/	.	8F\	.	8F/	8f\	.	2.ryy	.	8f/)	8f\	.	8F\	.	8r	.	8f/)	8f\	.	8ff 8f/	.	8ff\)	.
!	!	!	!	!	!	!	!	!	!	!	!	!	!	!	!	!	!LO:HP:a	!	!	!	!LO:HP:a	!	!	!	!	!	!	!	!	!	!	!	!	!	!	!	!	!	!	!	!	!
.	.	.	.	.	.	.	.	.	.	.	.	.	.	.	.	(<8F'</	>	.	.	(<8f'</	>	8r	.	8r	8r	.	.	.	8r	8rAyy	.	8r	.	(>8f\|	>	8r	8rGyy	.	8r	.	8r	.
*	*	*	*	*	*	*	*	*	*	*	*	*	*	*	*	*tremolo	*	*	*	*tremolo	*	*	*	*	*	*	*	*	*	*	*	*	*	*tremolo	*	*	*	*	*	*	*	*
4r	.	4r	.	4r	.	.	4r	.	.	4r	.	.	4r	.	.	8F'</L	.	4r	.	8f'</L	.	4r	.	4r	4r	.	.	.	4r	4rAyy	.	4r	.	8f'>\L	.	4r	4rGyy	.	4r	.	4r	.
.	.	.	.	.	.	.	.	.	.	.	.	.	.	.	.	8F'</	.	.	.	8f'</	.	.	.	.	.	.	.	.	.	.	.	.	.	8f'>\	.	.	.	.	.	.	.	.
!	!	!	!	!	!	!	!	!	!	!LO:TX:a:Bi:t=Solo:rj	!	!	!	!	!	!	!	!	!	!	!	!	!	!	!	!	!	!	!	!	!	!	!	!	!	!	!	!	!	!	!	!
4r	.	4r	.	4r	.	.	4r	.	.	8f/	Ta-	.	4r	.	.	8F'</	.	4r	.	8f'</	.	4r	.	4r	4r	.	.	.	4r	4rAyy	.	4r	.	8f'>\	.	4ryy	4rGyy	.	4r	.	4r	.
.	.	.	.	.	.	.	.	.	.	8f/	-iem-	.	.	.	.	8F'</J)	]]	.	.	8f'</J)	]]	.	.	.	.	.	.	.	.	.	.	.	.	8f'>\J)	]]	.	.	.	.	.	.	.
*	*	*	*	*	*	*	*	*	*	*	*	*	*	*	*	*Xtremolo	*	*	*	*Xtremolo	*	*	*	*	*	*	*	*	*	*	*	*	*	*Xtremolo	*	*	*	*	*	*	*	*
*	*	*	*	*	*	*	*	*	*	*	*	*	*	*	*	*	*	*	*	*	*	*	*	*	*	*	*	*	*v	*v	*	*	*	*	*	*v	*v	*	*	*	*	*
=28	=28	=28	=28	=28	=28	=28	=28	=28	=28	=28	=28	=28	=28	=28	=28	=28	=28	=28	=28	=28	=28	=28	=28	=28	=28	=28	=28	=28	=28	=28	=28	=28	=28	=28	=28	=28	=28	=28	=28	=28
!	!LO:DY:b:rj	!	!LO:DY:b:rj	!	!	!	!	!	!	!	!	!	!	!	!	!	!	!	!	!	!	!	!	!	!	!	!	!	!	!	!	!LO:DY:b:rj	!	!LO:DY:b:rj	!	!	!	!	!	!
4BB-/	p	4BB-/	p	2.r	.	.	2.r	.	.	(<4.f/	-ni-	.	2.r	.	.	8r	p	8r	.	8r	p	2.r	.	2.r	2.r	.	2.ryy	.	2.r	.	[>2.d-X [>2.F\	pp	[>2.f [<2.B-/	pp	2.r	.	2.r	.	2.r	.
.	.	.	.	.	.	.	.	.	.	.	.	.	.	.	.	(<8F'</	.	(<8d-X'</	.	(>8f &(<8B-'>/	.	.	.	.	.	.	.	.	.	.	.	.	.	.	.	.	.	.	.	.
*	*	*	*	*	*	*	*	*	*	*	*	*	*	*	*	*tremolo	*	*tremolo	*	*tremolo	*	*	*	*	*	*	*	*	*	*	*	*	*	*	*	*	*	*	*	*
4r	.	4r	.	.	.	.	.	.	.	.	.	.	.	.	.	8F'</L	.	8d-'</L	.	8fL 8B-'>/	.	.	.	.	.	.	.	.	.	.	.	.	.	.	.	.	.	.	.	.
.	.	.	.	.	.	.	.	.	.	16g-X/LL	.	.	.	.	.	8F'</	.	8d-'</	.	8f 8B-'>/	.	.	.	.	.	.	.	.	.	.	.	.	.	.	.	.	.	.	.	.
.	.	.	.	.	.	.	.	.	.	16f/JJ)	.	.	.	.	.	.	.	.	.	.	.	.	.	.	.	.	.	.	.	.	.	.	.	.	.	.	.	.	.	.
4r	.	4r	.	.	.	.	.	.	.	8e-/	-cę	.	.	.	.	8F'</	.	8d-'</	.	8f 8B-'>/	.	.	.	.	.	.	.	.	.	.	.	.	.	.	.	.	.	.	.	.
!	!	!	!	!	!	!	!	!	!	!	!	!	!	!	!	!	!	!	!	!LO:S:s=1:note:problem:note-level slur	!	!	!	!	!	!	!	!	!	!	!	!	!	!	!	!	!	!	!	!
!	!	!	!	!	!	!	!	!	!	!	!	!	!	!	!	!	!	!	!	!LO:S:s=2:note:problem:note-level slur	!	!	!	!	!	!	!	!	!	!	!	!	!	!	!	!	!	!	!	!
.	.	.	.	.	.	.	.	.	.	8d-X/	tę	.	.	.	.	8F'</J)	.	8d-'</J)	.	8fJ) 8B-'>/&)	.	.	.	.	.	.	.	.	.	.	.	.	.	.	.	.	.	.	.	.
*	*	*	*	*	*	*	*	*	*	*	*	*	*	*	*	*Xtremolo	*	*Xtremolo	*	*Xtremolo	*	*	*	*	*	*	*	*	*	*	*	*	*	*	*	*	*	*	*	*
=29	=29	=29	=29	=29	=29	=29	=29	=29	=29	=29	=29	=29	=29	=29	=29	=29	=29	=29	=29	=29	=29	=29	=29	=29	=29	=29	=29	=29	=29	=29	=29	=29	=29	=29	=29	=29	=29	=29	=29	=29
*	*	*	*	*	*	*	*	*	*	*	*	*	*	*	*	*rep	*	*rep	*	*rep	*	*	*	*	*	*	*	*	*	*	*	*	*	*	*	*	*	*	*	*
4BB-/	.	4BB-/	.	2.r	.	.	2.r	.	.	8c/	świę-	.	2.r	.	.	8r	.	8r	.	8r	.	2.ryy	.	2.ryy	2.ryy	.	2.ryy	.	2.ryy	.	2.d-X] 2.F\]	.	2.f] 2.B-/]	.	2.ryy	.	2.ryy	.	2.ryy	.
.	.	.	.	.	.	.	.	.	.	8r	.	.	.	.	.	(<8F'</	.	(<8d-X'</	.	(>8f &(<8B-'>/	.	.	.	.	.	.	.	.	.	.	.	.	.	.	.	.	.	.	.	.
*	*	*	*	*	*	*	*	*	*	*	*	*	*	*	*	*tremolo	*	*tremolo	*	*tremolo	*	*	*	*	*	*	*	*	*	*	*	*	*	*	*	*	*	*	*	*
4r	.	4r	.	.	.	.	.	.	.	4B-/	-cim	.	.	.	.	8F'</L	.	8d-'</L	.	8fL 8B-'>/	.	.	.	.	.	.	.	.	.	.	.	.	.	.	.	.	.	.	.	.
.	.	.	.	.	.	.	.	.	.	.	.	.	.	.	.	8F'</	.	8d-'</	.	8f 8B-'>/	.	.	.	.	.	.	.	.	.	.	.	.	.	.	.	.	.	.	.	.
4r	.	4r	.	.	.	.	.	.	.	4f/	głę-	.	.	.	.	8F'</	.	8d-'</	.	8f 8B-'>/	.	.	.	.	.	.	.	.	.	.	.	.	.	.	.	.	.	.	.	.
!	!	!	!	!	!	!	!	!	!	!	!	!	!	!	!	!	!	!	!	!LO:S:s=1:note:problem:note-level slur	!	!	!	!	!	!	!	!	!	!	!	!	!	!	!	!	!	!	!	!
!	!	!	!	!	!	!	!	!	!	!	!	!	!	!	!	!	!	!	!	!LO:S:s=2:note:problem:note-level slur	!	!	!	!	!	!	!	!	!	!	!	!	!	!	!	!	!	!	!	!
.	.	.	.	.	.	.	.	.	.	.	.	.	.	.	.	8F'</J)	.	8d-'</J)	.	8fJ) 8B-'>/&)	.	.	.	.	.	.	.	.	.	.	.	.	.	.	.	.	.	.	.	.
*	*	*	*	*	*	*	*	*	*	*	*	*	*	*	*	*Xtremolo	*	*Xtremolo	*	*Xtremolo	*	*	*	*	*	*	*	*	*	*	*	*	*	*	*	*	*	*	*	*
*	*	*	*	*	*	*	*	*	*	*	*	*	*	*	*	*Xrep	*	*Xrep	*	*Xrep	*	*	*	*	*	*	*	*	*	*	*	*	*	*	*	*	*	*	*	*
=30	=30	=30	=30	=30	=30	=30	=30	=30	=30	=30	=30	=30	=30	=30	=30	=30	=30	=30	=30	=30	=30	=30	=30	=30	=30	=30	=30	=30	=30	=30	=30	=30	=30	=30	=30	=30	=30	=30	=30	=30
*	*	*	*	*	*	*	*	*	*	*	*	*	*	*	*	*	*	*	*	*	*	*	*	*	*	*	*	*	*	*	*^	*	*^	*	*	*	*	*	*	*
4GG-X^</	.	4GG-X^</	.	2.r	.	.	2.r	.	.	2g-X/	-bo-	.	2.r	.	.	8r	.	8r	.	8r	.	2.ryy	.	2.ryy	2.ryy	.	2.ryy	.	2.ryy	.	(>2d-X^>/	(<2.G-X^<\	.	2g-X^>/	(<2.B-\	.	2.ryy	.	2.ryy	.	2.ryy	.
.	.	.	.	.	.	.	.	.	.	.	.	.	.	.	.	8G-X^>/L	.	8d-X/L	.	(<8g-XL^> 8B-'</	.	.	.	.	.	.	.	.	.	.	.	.	.	.	.	.	.	.	.	.	.	.
4r	.	4r	.	.	.	.	.	.	.	.	.	.	.	.	.	8G-/	.	8d-/	.	8g- 8B-'</	.	.	.	.	.	.	.	.	.	.	.	.	.	.	.	.	.	.	.	.	.	.
.	.	.	.	.	.	.	.	.	.	.	.	.	.	.	.	8G-/J	.	8d-/J	.	8g-J 8B-'</)	.	.	.	.	.	.	.	.	.	.	.	.	.	.	.	.	.	.	.	.	.	.
8G-X\	.	8G-X\	.	.	.	.	.	.	.	8d-X/	-kiem	.	.	.	.	8r	.	8r	.	8r	.	.	.	.	.	.	.	.	.	.	4B-/	.	.	(>8d-X/L	.	.	.	.	.	.	.	.
8r	.	8r	.	.	.	.	.	.	.	8e-/	ucz-	.	.	.	.	8G-/	.	8B-/	.	8e-/	.	.	.	.	.	.	.	.	.	.	.	.	.	8e-/J	.	.	.	.	.	.	.	.
=31	=31	=31	=31	=31	=31	=31	=31	=31	=31	=31	=31	=31	=31	=31	=31	=31	=31	=31	=31	=31	=31	=31	=31	=31	=31	=31	=31	=31	=31	=31	=31	=31	=31	=31	=31	=31	=31	=31	=31	=31	=31	=31
4F\	.	4F\	.	2.r	.	.	2.r	.	.	4f/	-cze-	.	2.ryy	.	.	8r	.	8r	.	8r	.	2.ryy	.	2.ryy	2.ryy	.	2.ryy	.	2.ryy	.	2c/)	2F\)	.	2f/)	2AX\)	.	2.ryy	.	2.ryy	.	2.ryy	.
.	.	.	.	.	.	.	.	.	.	.	.	.	.	.	.	8F/	.	8An/	.	(<8f'</	.	.	.	.	.	.	.	.	.	.	.	.	.	.	.	.	.	.	.	.	.	.
*	*	*	*	*	*	*	*	*	*	*	*	*	*	*	*	*tremolo	*	*tremolo	*	*tremolo	*	*	*	*	*	*	*	*	*	*	*	*	*	*	*	*	*	*	*	*	*	*
4r	.	4r	.	.	.	.	.	.	.	8f/	-niem	.	.	.	.	8F/L	.	8A/L	.	8f'</L	.	.	.	.	.	.	.	.	.	.	.	.	.	.	.	.	.	.	.	.	.	.
.	.	.	.	.	.	.	.	.	.	8r	.	.	.	.	.	8F/	.	8A/	.	8f'</	.	.	.	.	.	.	.	.	.	.	.	.	.	.	.	.	.	.	.	.	.	.
4r	.	4r	.	.	.	.	.	.	.	8f/	Któ-	.	.	.	.	8F/	.	8A/	.	8f'</	.	.	.	.	.	.	.	.	.	.	4r	4rCCyy	.	4rdd	4rd	.	.	.	.	.	.	.
.	.	.	.	.	.	.	.	.	.	8f/	-ra	.	.	.	.	8F/J	.	8A/J	.	8f'</J)	.	.	.	.	.	.	.	.	.	.	.	.	.	.	.	.	.	.	.	.	.	.
*	*	*	*	*	*	*	*	*	*	*	*	*	*	*	*	*Xtremolo	*	*Xtremolo	*	*Xtremolo	*	*	*	*	*	*	*	*	*	*	*	*	*	*	*	*	*	*	*	*	*	*
*	*	*	*	*	*	*	*	*	*	*	*	*	*	*	*	*	*	*	*	*	*	*	*	*	*	*	*	*	*	*	*v	*v	*	*	*	*	*	*	*	*	*	*
*	*	*	*	*	*	*	*	*	*	*	*	*	*	*	*	*	*	*	*	*	*	*	*	*	*	*	*	*	*	*	*	*	*v	*v	*	*	*	*	*	*	*
=32	=32	=32	=32	=32	=32	=32	=32	=32	=32	=32	=32	=32	=32	=32	=32	=32	=32	=32	=32	=32	=32	=32	=32	=32	=32	=32	=32	=32	=32	=32	=32	=32	=32	=32	=32	=32	=32	=32	=32	=32
8E-\	.	8E-\	.	2.r	.	.	2.r	.	.	4g-X/	w no-	.	2.ryy	.	.	8r	.	8r	.	8r	.	2.ryy	.	2.ryy	2.ryy	.	2.ryy	.	2.ryy	.	2.r	.	2.r	.	2.ryy	.	2.ryy	.	2.ryy	.
8r	.	8r	.	.	.	.	.	.	.	.	.	.	.	.	.	8An/	.	8c/	.	8g-X/|	.	.	.	.	.	.	.	.	.	.	.	.	.	.	.	.	.	.	.	.
8E-\	.	8E-\	.	.	.	.	.	.	.	4.g-/	-wym	.	.	.	.	8r	.	8r	.	8r	.	.	.	.	.	.	.	.	.	.	.	.	.	.	.	.	.	.	.	.
8r	.	8r	.	.	.	.	.	.	.	.	.	.	.	.	.	8A/	.	8c/	.	8g-/|	.	.	.	.	.	.	.	.	.	.	.	.	.	.	.	.	.	.	.	.
8D-X\	.	8D-X\	.	.	.	.	.	.	.	.	.	.	.	.	.	8r	.	8r	.	8r	.	.	.	.	.	.	.	.	.	.	.	.	.	.	.	.	.	.	.	.
8r	.	8r	.	.	.	.	.	.	.	8f/	za-	.	.	.	.	8B-/	.	8d-X/	.	8f/|	.	.	.	.	.	.	.	.	.	.	.	.	.	.	.	.	.	.	.	.
!!LO:PB:g=original
=33	=33	=33	=33	=33	=33	=33	=33	=33	=33	=33	=33	=33	=33	=33	=33	=33	=33	=33	=33	=33	=33	=33	=33	=33	=33	=33	=33	=33	=33	=33	=33	=33	=33	=33	=33	=33	=33	=33	=33	=33
(<4C/	.	(<4C/	.	2.r	.	.	2.r	.	.	(>8f/L	-ko-	.	2.r	.	.	(>4c\	.	8G/L	.	(<8f/L	.	2.r	.	2.r	2.r	.	2.r	.	2.r	.	2.r	.	2.r	.	2.r	.	2.r	.	2.r	.
.	.	.	.	.	.	.	.	.	.	8e-/J)	.	.	.	.	.	.	.	8An/J	.	8e-/J	.	.	.	.	.	.	.	.	.	.	.	.	.	.	.	.	.	.	.	.
8BB-/)	.	8BB-/)	.	.	.	.	.	.	.	4d-X/	-nie	.	.	.	.	8B-\)	.	8B-/	.	8d-X/)	.	.	.	.	.	.	.	.	.	.	.	.	.	.	.	.	.	.	.	.
8r	.	8r	.	.	.	.	.	.	.	.	.	.	.	.	.	8B-/	.	8B-'</	.	8d-'</	.	.	.	.	.	.	.	.	.	.	.	.	.	.	.	.	.	.	.	.
8E-\	.	8E-\	.	.	.	.	.	.	.	8c/	speł-	.	.	.	.	8r	.	8r	.	8r	.	.	.	.	.	.	.	.	.	.	.	.	.	.	.	.	.	.	.	.
8r	.	8r	.	.	.	.	.	.	.	8g-X/	-nia	.	.	.	.	8G-X^</	.	8c^</	.	8c'<^>/	.	.	.	.	.	.	.	.	.	.	.	.	.	.	.	.	.	.	.	.
=34	=34	=34	=34	=34	=34	=34	=34	=34	=34	=34	=34	=34	=34	=34	=34	=34	=34	=34	=34	=34	=34	=34	=34	=34	=34	=34	=34	=34	=34	=34	=34	=34	=34	=34	=34	=34	=34	=34	=34	=34
*	*	*	*	*	*	*	*	*	*	*	*	*	*	*	*	*	*	*	*	*	*	*	*	*	*	*	*	*	*	*	*^	*	*^	*	*^	*	*	*	*	*
8F\	.	8F\	.	2.r	.	.	2.r	.	.	8f/	za-	.	2.r	.	.	8r	.	8r	.	8r	.	2.r	.	2.r	2.r	.	2.r	.	2.r	.	4r	4ryy	p	4r	4rAAyy	.	4r	4rGyy	p	2.r	.	2.r	.
8r	.	8r	.	.	.	.	.	.	.	8d/	-kon	.	.	.	.	8F/	.	8B-/	.	8dn'</	.	.	.	.	.	.	.	.	.	.	.	.	.	.	.	.	.	.	.	.	.	.	.
8F\	.	8F\	.	.	.	.	.	.	.	(>4.d/	sta-	.	.	.	.	8r	.	8r	.	8r	.	.	.	.	.	.	.	.	.	.	(>4.d\	2F\	.	[>2f/	2f\	.	>(4.dd/	4.b-\	.	.	.	.	.
8r	.	8r	.	.	.	.	.	.	.	.	.	.	.	.	.	8F/	.	8B-/	.	8d'</	.	.	.	.	.	.	.	.	.	.	.	.	.	.	.	.	.	.	.	.	.	.	.
8FF/	.	8FF/	.	.	.	.	.	.	.	.	.	.	.	.	.	8r	.	8r	.	8r	.	.	.	.	.	.	.	.	.	.	.	.	.	.	.	.	.	.	.	.	.	.	.
8r	.	8r	.	.	.	.	.	.	.	8c/)	.	.	.	.	.	8F 8E-/	.	8An/	.	8c'</	.	.	.	.	.	.	.	.	.	.	8e-\	.	.	.	.	.	8cc/	8a\	.	.	.	.	.
*	*	*	*	*	*	*	*	*	*	*	*	*	*	*	*	*	*	*	*	*	*	*	*	*	*	*	*	*	*	*	*v	*v	*	*	*	*	*	*	*	*	*	*	*
*	*	*	*	*	*	*	*	*	*	*	*	*	*	*	*	*	*	*	*	*	*	*	*	*	*	*	*	*	*	*	*	*	*v	*v	*	*	*	*	*	*	*	*
=35	=35	=35	=35	=35	=35	=35	=35	=35	=35	=35	=35	=35	=35	=35	=35	=35	=35	=35	=35	=35	=35	=35	=35	=35	=35	=35	=35	=35	=35	=35	=35	=35	=35	=35	=35	=35	=35	=35	=35	=35	=35
8BB-/	.	8BB-/	.	2.r	.	.	2.r	.	.	8B-/	-ry,	.	2.r	.	.	8F 8D/	.	8B-/	.	8B-'</L	.	2.r	.	2.r	2.r	.	2.r	.	2.r	.	8d 8B-\)	.	8f] 8B-/	.	8b-/)	8b-\	.	2.r	.	2.r	.
8r	.	8r	.	.	.	.	.	.	.	8r	.	.	.	.	.	8r	.	8r	.	(<8An/	.	.	.	.	.	.	.	.	.	.	8r	.	8r	.	8r	8rByy	.	.	.	.	.
4r	.	4r	.	.	.	.	.	.	.	4r	.	.	.	.	.	4r	.	4r	.	8B-/	.	.	.	.	.	.	.	.	.	.	4r	.	4r	.	4r	4rByy	.	.	.	.	.
.	.	.	.	.	.	.	.	.	.	.	.	.	.	.	.	.	.	.	.	8d/	.	.	.	.	.	.	.	.	.	.	.	.	.	.	.	.	.	.	.	.	.
4r	.	4r	.	.	.	.	.	.	.	4r	.	.	.	.	.	4r	.	8r	.	8f/	.	.	.	.	.	.	.	.	.	.	4r	.	4r	.	4r	4rByy	.	.	.	.	.
.	.	.	.	.	.	.	.	.	.	.	.	.	.	.	.	.	.	(<8f/	.	8a-X/J)	.	.	.	.	.	.	.	.	.	.	.	.	.	.	.	.	.	.	.	.	.
*	*	*	*	*	*	*	*	*	*	*	*	*	*	*	*	*	*	*	*	*	*	*	*	*	*	*	*	*	*	*	*	*	*	*	*v	*v	*	*	*	*	*
=36	=36	=36	=36	=36	=36	=36	=36	=36	=36	=36	=36	=36	=36	=36	=36	=36	=36	=36	=36	=36	=36	=36	=36	=36	=36	=36	=36	=36	=36	=36	=36	=36	=36	=36	=36	=36	=36	=36	=36	=36
*^	*	*^	*	*	*	*	*	*	*	*	*	*	*	*	*	*	*	*	*	*	*	*	*	*	*	*	*	*	*	*	*	*	*	*	*	*	*	*	*	*
4r	2.rGG	.	4r	2.rGG	.	4r	.	.	4r	.	.	4r	.	.	4r	.	.	4r	.	8a-X/L	.	(<8cc/L	.	2.ryy	.	2.ryy	2.ryy	.	2.ryy	.	2.ryy	.	2.ryy	.	2.ryy	.	2.ryy	.	2.ryy	.	2.ryy	.
.	.	.	.	.	.	.	.	.	.	.	.	.	.	.	.	.	.	.	.	8g/	.	8b-/	.	.	.	.	.	.	.	.	.	.	.	.	.	.	.	.	.	.	.	.
8r	.	.	8r	.	.	4r	.	.	4r	.	.	4r	.	.	4r	.	.	8r	.	8f/	.	8a-/	.	.	.	.	.	.	.	.	.	.	.	.	.	.	.	.	.	.	.	.
8B-/	.	.	8B-/	.	.	.	.	.	.	.	.	.	.	.	.	.	.	8B-/	.	8d/J)	.	8f/J)	.	.	.	.	.	.	.	.	.	.	.	.	.	.	.	.	.	.	.	.
4E-/	.	.	4E-/	.	.	8E-\	.	.	8B-\	.	.	8e-/	.	.	8g/	Ta-	.	4B- 4E-/	.	<8e-/L	.	(<8g/L	.	.	.	.	.	.	.	.	.	.	.	.	.	.	.	.	.	.	.	.
.	.	.	.	.	.	8E-\	.	.	8B-\	.	.	8f/	.	.	8a-/	-ie-	.	.	.	8f/J)	.	8a-/J)	.	.	.	.	.	.	.	.	.	.	.	.	.	.	.	.	.	.	.	.
=37	=37	=37	=37	=37	=37	=37	=37	=37	=37	=37	=37	=37	=37	=37	=37	=37	=37	=37	=37	=37	=37	=37	=37	=37	=37	=37	=37	=37	=37	=37	=37	=37	=37	=37	=37	=37	=37	=37	=37	=37	=37	=37
*	*	*	*	*	*	*	*	*	*^	*	*	*	*	*	*	*	*	*	*	*	*	*	*	*	*	*	*	*	*	*	*	*	*	*	*	*	*	*	*	*	*	*
!LO:TX:a:t=P:w źródle powtórzona część a. niewidoczna, odpowiednio oznaczona ołówkiem jako powtórka:problem	!	!	!LO:TX:a:t=P:w źródle powtórzona część a. niewidoczna, odpowiednio oznaczona ołówkiem jako powtórka:problem	!	!	!	!	!	!	!	!	!	!	!	!	!	!	!	!	!	!	!	!	!	!	!	!	!	!	!	!	!	!	!	!	!	!	!	!	!	!	!	!
!	!	!	!	!	!	!	!	!	!	!	!	!	!	!	!	!	!	!	!	!	!	!	!	!	!	!	!	!	!	!	!	!	!	!	!	!LO:TX:a:t=P:w źródle powtórzona część a. niewidoczna, odpowiednio oznaczona ołówkiem jako powtórka:problem	!	!LO:TX:a:t=P:w źródle powtórzona część a. niewidoczna, odpowiednio oznaczona ołówkiem jako powtórka:problem	!	!	!	!	!
!	!	!	!	!	!	!	!	!	!	!	!	!	!	!	!	!	!	!	!	!	!	!	!	!	!	!	!	!	!	!	!	!	!	!	!	!	!	!	!	!LO:TX:a:t=P:w źródle powtórzona część a. niewidoczna, odpowiednio oznaczona ołówkiem jako powtórka:problem	!	!LO:TX:a:t=P:w źródle powtórzona część a. niewidoczna, odpowiednio oznaczona ołówkiem jako powtórka:problem	!
!	!	!	!	!	!	!	!	!	!	!	!	!	!	!	!	!	!	!	!LO:TX:a:t=P:w źródle powtórzona część a. niewidoczna, odpowiednio oznaczona ołówkiem jako powtórka:problem	!	!LO:TX:a:t=P:w źródle powtórzona część a. niewidoczna, odpowiednio oznaczona ołówkiem jako powtórka:problem	!	!LO:TX:a:t=P:w źródle powtórzona część a. niewidoczna, odpowiednio oznaczona ołówkiem jako powtórka:problem	!	!	!	!	!	!	!	!	!	!	!	!	!	!	!	!	!	!	!	!
!	!	!	!	!	!	!	!	!	!	!	!	!	!	!	!	!	!	!	!	!	!	!	!	!	!	!	!	!	!	!LO:TX:a:t=P:w źródle powtórzona część a. niewidoczna, odpowiednio oznaczona ołówkiem jako powtórka:problem	!	!LO:TX:a:t=P:w źródle powtórzona część a. niewidoczna, odpowiednio oznaczona ołówkiem jako powtórka:problem	!	!LO:TX:a:t=P:w źródle powtórzona część a. niewidoczna, odpowiednio oznaczona ołówkiem jako powtórka:problem	!	!	!	!	!	!	!	!	!
!	!	!	!	!	!	!	!	!	!	!	!	!	!	!	!	!	!	!	!	!	!	!	!	!	!	!	!	!	!	!	!	!	!	!	!	!	!	!	!	!	!	!LO:TX:a:Bi:t=a. B.:problem:dla wszystkich głosów, których to dotyczy	!
!	!	!	!	!	!	!	!	!	!	!	!	!	!	!	!	!	!	!	!	!	!	!	!	!	!LO:TX:a:t=P:w źródle powtórzona część a. niewidoczna, odpowiednio oznaczona ołówkiem jako powtórka:problem	!	!LO:TX:a:t=P:w źródle powtórzona część a. niewidoczna, odpowiednio oznaczona ołówkiem jako powtórka:problem	!LO:TX:a:t=P:w źródle powtórzona część a. niewidoczna, odpowiednio oznaczona ołówkiem jako powtórka:problem	!	!	!	!	!	!	!	!	!	!	!	!	!	!	!
!	!	!	!	!	!	!	!	!	!	!	!	!	!	!	!	!	!	!	!	!	!	!	!LO:TX:b:Bi:t=dolce	!	!	!	!	!	!	!	!	!	!	!	!	!	!	!	!	!	!	!	!
2.E-/yy	2.rGGyy	.	2.E-/yy	2.rGGyy	.	4E-\	.	.	8B-\L	4rCCyy	.	.	(<8g/L	.	.	(>8b-\L	-mni-	.	[>2.B-yy [<2.E-/yy	.	(<8g/Lyy	.	(>8b-\Lyy	.	2.ryy	.	2.ryy	2.ryy	.	2.ryy	.	2.ryy	.	2.ryy	.	2.ryy	.	2.ryy	.	2.ryy	.	2.ryy	.
.	.	.	.	.	.	.	.	.	8cJ 8A-\	.	.	.	8a-/J)	.	.	8cc\J)	.	.	.	.	8a-/Jyy	.	8cc\Jyy	.	.	.	.	.	.	.	.	.	.	.	.	.	.	.	.	.	.	.	.
.	.	.	.	.	.	4E-\	.	.	4B- 4G\	4rCCyy	.	.	4g/	.	.	4b-\	-cę	.	.	.	4g/)yy	.	4b-\)yy	.	.	.	.	.	.	.	.	.	.	.	.	.	.	.	.	.	.	.	.
!	!	!	!	!	!	!LO:TX:a:t=P:łamanie systemu zgodne z całą partyturą:problem	!	!	!	!	!	!	!	!	!	!	!	!	!	!	!	!	!	!	!	!	!	!	!	!	!	!	!	!	!	!	!	!	!	!	!	!	!
.	.	.	.	.	.	4E-\	.	.	(>8c/L	8A-\L	.	.	8a-/L	.	.	(>8cc\L	tę	.	.	.	(<8a-/Lyy	.	(>8cc\Lyy	.	.	.	.	.	.	.	.	.	.	.	.	.	.	.	.	.	.	.	.
.	.	.	.	.	.	.	.	.	8B-/J)	8B-\J	.	.	8f/J	.	.	8dd\J)	.	.	.	.	8f/J)yy	.	8dd\J)yy	.	.	.	.	.	.	.	.	.	.	.	.	.	.	.	.	.	.	.	.
!!LO:PB:g=original
*	*	*	*	*	*	*	*	*	*v	*v	*	*	*	*	*	*	*	*	*	*	*	*	*	*	*	*	*	*	*	*	*	*	*	*	*	*	*	*	*	*	*	*	*
=38	=38	=38	=38	=38	=38	=38	=38	=38	=38	=38	=38	=38	=38	=38	=38	=38	=38	=38	=38	=38	=38	=38	=38	=38	=38	=38	=38	=38	=38	=38	=38	=38	=38	=38	=38	=38	=38	=38	=38	=38	=38	=38
!	!	!	!	!	!	!	!	!	!	!	!	!	!	!	!	!	!	!LO:TX:a:t=P:w źródle ligatura tak jakby kontynuowana:problem	!	!	!	!	!	!	!	!	!	!	!	!	!	!	!	!	!	!	!	!	!	!	!	!
2.E-/yy	2.rGGyy	.	2.E-/yy	2.rGGyy	.	2E-\	.	.	2B- 2G\	.	.	2g/	.	.	2ee-\	świę-	.	2.B-]yy 2.E-/]yy	.	2g/yy	.	(>2ee-\yy	.	2.ryy	.	2.ryy	2.ryy	.	2.ryy	.	2.ryy	.	2.ryy	.	2.ryy	.	2.ryy	.	2.ryy	.	2.ryy	.
.	.	.	.	.	.	8E-\	.	.	8e-\	.	.	8g/	.	.	8b-\	-ciem	.	.	.	4g/yy	.	4b-\)yy	.	.	.	.	.	.	.	.	.	.	.	.	.	.	.	.	.	.	.	.
.	.	.	.	.	.	8E-\	.	.	8e-\	.	.	8g/	.	.	8b-\	z głę-	.	.	.	.	.	.	.	.	.	.	.	.	.	.	.	.	.	.	.	.	.	.	.	.	.	.
=39	=39	=39	=39	=39	=39	=39	=39	=39	=39	=39	=39	=39	=39	=39	=39	=39	=39	=39	=39	=39	=39	=39	=39	=39	=39	=39	=39	=39	=39	=39	=39	=39	=39	=39	=39	=39	=39	=39	=39	=39	=39	=39
(>4E-/yy	2.rGGyy	.	(>4E-/yy	2.rGGyy	.	(>4.E-\	.	.	2e-\	.	.	(<8g/L	.	.	(>8ee-\L	-bo-	.	(<2E-/yy	.	(<8g/Lyy	.	(>8ee-\Lyy	.	2.ryy	.	2.ryy	2.ryy	.	2.ryy	.	2.ryy	.	2.ryy	.	2.ryy	.	2.ryy	.	2.ryy	.	2.ryy	.
.	.	.	.	.	.	.	.	.	.	.	.	8b-/	.	.	8dd\	.	.	.	.	8b-/yy	.	8dd\yy	.	.	.	.	.	.	.	.	.	.	.	.	.	.	.	.	.	.	.	.
8E-/Lyy	.	.	8E-/Lyy	.	.	.	.	.	.	.	.	8a-/	.	.	8cc\	.	.	.	.	8a-/)yy	.	8cc\)yy	.	.	.	.	.	.	.	.	.	.	.	.	.	.	.	.	.	.	.	.
8G/yy	.	.	8G/yy	.	.	8G\)	.	.	.	.	.	8g/J)	.	.	8b-\J)	.	.	.	.	8g'</yy	.	8b-'>\yy	.	.	.	.	.	.	.	.	.	.	.	.	.	.	.	.	.	.	.	.
8A-/yy	.	.	8A-/yy	.	.	8A-\	.	.	8c\	.	.	8f/	.	.	8a-/	-kiwm	.	4c/)yy	.	8f'</yy	.	8a-'>\yy	.	.	.	.	.	.	.	.	.	.	.	.	.	.	.	.	.	.	.	.
8An/J)yy	.	.	8An/J)yy	.	.	8An\	.	.	8c\	.	.	8e-/	.	.	8g/	ucz-	.	.	.	8e-'</Jyy	.	8g'>\Jyy	.	.	.	.	.	.	.	.	.	.	.	.	.	.	.	.	.	.	.	.
=40	=40	=40	=40	=40	=40	=40	=40	=40	=40	=40	=40	=40	=40	=40	=40	=40	=40	=40	=40	=40	=40	=40	=40	=40	=40	=40	=40	=40	=40	=40	=40	=40	=40	=40	=40	=40	=40	=40	=40	=40	=40	=40
*	*	*	*	*	*	*	*	*	*	*	*	*	*	*	*	*	*	*	*	*	*	*	*	*	*	*	*	*	*	*	*	*	*	*	*	*	*	*	*^	*	*	*
(>4B-\yy	4rCCyy	.	(>4B-\yy	4rCCyy	.	4B-\	.	.	4B-\	.	.	4e-/	.	.	4g/	-cze-	.	[<4B-/yy	.	4e-/yy	.	(<4g/yy	.	2.ryy	.	2.ryy	2.ryy	.	2.r	.	2.ryy	.	4ryy	.	4ryy	.	4ryy	.	4ryy	2.reyy	.	4ryy	.
8BB-/)yy	4rCCyy	.	8BB-/)yy	4rCCyy	.	8BB-/	.	.	8B-\	.	.	8d/	.	.	8f/	-niem	.	8B-/]yy	.	8d/yy	.	8f/)yy	.	.	.	.	.	.	.	.	.	.	4ryy	.	4ryy	.	4ryy	.	4ryy	.	.	4ryy	.
8ryy	.	.	8ryy	.	.	8r	.	.	8r	.	.	8r	.	.	8r	.	.	8ryy	.	8ryy	.	8ryy	.	.	.	.	.	.	.	.	.	.	.	.	.	.	.	.	.	.	.	.	.
!	!	!	!	!	!	!	!	!	!	!	!	!	!	!	!	!	!	!	!	!	!	!	!	!	!	!	!	!	!	!	!	!	!	!	!	!	!	!LO:DY:b:rj	!	!	!	!	!LO:DY:b:rj
4E-\yy	4ryy	.	4E-\yy	4ryy	.	8E-\	.	.	8B-\	.	.	8e-/	.	.	8g/	Któ-	.	[>4B-/yy	.	(<8e-/Lyy	.	(<8g/Lyy	.	.	.	.	.	.	.	.	.	.	(>4B-yy 4G\yy	.	4e-yy 4E-/yy	.	(<8gLyy 8e-/yy	mf	(>8ee-\Lyy	.	.	(>8gg\Lyy	mf
.	.	.	.	.	.	8E-\	.	.	8B-\	.	.	8f/	.	.	8a-/	-ra	.	.	.	8f/J)yy	.	8a-/J)yy	.	.	.	.	.	.	.	.	.	.	.	.	.	.	8a-Jyy 8f/)yy	.	8ff\J)yy	.	.	8aan\J)yy	.
*v	*v	*	*v	*v	*	*	*	*	*	*	*	*	*	*	*	*	*	*	*	*	*	*	*	*	*	*	*	*	*	*	*	*	*	*	*	*	*	*	*	*	*	*	*
=41	=41	=41	=41	=41	=41	=41	=41	=41	=41	=41	=41	=41	=41	=41	=41	=41	=41	=41	=41	=41	=41	=41	=41	=41	=41	=41	=41	=41	=41	=41	=41	=41	=41	=41	=41	=41	=41	=41	=41	=41	=41
*	*	*	*	*	*	*	*^	*	*	*	*	*	*	*	*	*^	*	*	*	*	*	*	*	*	*	*	*	*	*	*	*^	*	*	*	*^	*	*	*	*	*	*
2E-\yy	.	2E-\yy	.	4E-\yy	.	.	8B-\L	4rEEyy	.	.	8g/L	.	.	(>8b-\L	w no-	.	8B-/L]yy	4ryy	.	(<8g/Lyy	.	(>8b-\Lyy	.	2.ryy	.	2.ryy	2.ryy	.	2.ryy	.	2.ryy	.	8B-Lyy 8G\yy	4ryy	.	[>2.e-yy [<2.E-/yy	.	(<8b-Lyy 8g/yy	4rGyy	.	(>8gg\Lyy	2.reyy	.	(>8bb-\Lyy	.
.	.	.	.	.	.	.	8cJ 8A-\	.	.	.	8a-/J	.	.	8cc\J)	.	.	8cJyy 8A-/yy	.	.	8a-/J)yy	.	8cc\Jyy	.	.	.	.	.	.	.	.	.	.	8cJyy 8A-\)yy	.	.	.	.	8ccJyy 8a-/yy	.	.	8aa-\Jyy	.	.	8ccc\Jyy	.
.	.	.	.	4E-\yy	.	.	4B-/	4G\	.	.	4g/	.	.	4b-\	-wym	.	4B-yy 4G/yy	4ryy	.	4g/yy	.	4b-\)yy	.	.	.	.	.	.	.	.	.	.	4B-/yy	4G\yy	.	.	.	4b-yy 4g/)yy	4rGyy	.	4gg\)yy	.	.	4bb-\)yy	.
4E-\yy	.	4E-\yy	.	4E-\yy	.	.	8c/L	4A-\	.	.	8a-/L	.	.	(>8cc\L	za-	.	8c/Lyy	4A-\yy	.	(<8a-/Lyy	.	(>8cc\Lyy	.	.	.	.	.	.	.	.	.	.	8c/Lyy	4A-\yy	.	.	.	(>8cc/Lyy	8a-\Lyy	.	(>8aa-\Lyy	.	.	(>8ccc\Lyy	.
.	.	.	.	.	.	.	8B-/J	.	.	.	8f/J	.	.	8dd\J)	.	.	8B-/Jyy	.	.	8f/J)yy	.	8dd\J)yy	.	.	.	.	.	.	.	.	.	.	8B-/Jyy	.	.	.	.	8dd/J)yy	8f\Jyy	.	8ff\J)yy	.	.	8ddd\J)yy	.
*	*	*	*	*	*	*	*v	*v	*	*	*	*	*	*	*	*	*	*	*	*	*	*	*	*	*	*	*	*	*	*	*	*	*	*	*	*	*	*	*	*	*	*	*	*	*
=42	=42	=42	=42	=42	=42	=42	=42	=42	=42	=42	=42	=42	=42	=42	=42	=42	=42	=42	=42	=42	=42	=42	=42	=42	=42	=42	=42	=42	=42	=42	=42	=42	=42	=42	=42	=42	=42	=42	=42	=42	=42	=42	=42	=42
*	*	*	*	*	*	*	*	*	*	*	*	*	*	*	*	*	*	*	*	*	*	*	*	*	*	*	*	*^	*	*	*	*	*	*	*^	*	*	*	*	*	*	*	*	*
2E-\yy	.	2E-\yy	.	4E-\yy	.	.	(>8.B-L 8.G\	.	.	4g/	.	.	(>8.ee-\L	-ko-	.	2B-/yy	8G\Lyy	.	2g/yy	.	(>4ee-\yy	.	4ryy	.	4ryy	4ryy	.	4ryy	4ryy	.	2.ryy	.	2B-/yy	2G\yy	.	2e-]yy 2E-/]yy	4rFFyy	.	(>4ee-/yy	2g\yy	.	2gg\yy	4ryy	.	(>4eee-\yy	.
.	.	.	.	.	.	.	.	.	.	.	.	.	.	.	.	.	8E-\Jyy	.	.	.	.	.	.	.	.	.	.	.	.	.	.	.	.	.	.	.	.	.	.	.	.	.	.	.	.	.
.	.	.	.	.	.	.	16e-\Jk)	.	.	.	.	.	16b-\Jk)	.	.	.	.	.	.	.	.	.	.	.	.	.	.	.	.	.	.	.	.	.	.	.	.	.	.	.	.	.	.	.	.	.
.	.	.	.	4E-\yy	.	.	4e-\	.	.	4g/	.	.	4b-\	-nie	.	.	4E-\yy	.	.	.	4b-\)yy	.	4ryy	.	4ryy	4ryy	.	4ryy	4ryy	.	.	.	.	.	.	.	4rFFyy	.	4b-/)yy	.	.	.	4ryy	.	4bb-\)yy	.
!	!LO:DY:b:rj	!	!LO:DY:b:rj	!	!	!LO:DY:b:rj	!	!	!LO:DY:b:rj	!	!	!	!	!	!LO:DY:b:rj	!	!	!LO:DY:b:rj	!	!LO:DY:b:rj	!	!LO:DY:b:rj	!	!	!	!	!	!	!	!LO:DY:a:rj	!	!	!	!	!	!	!	!LO:DY:b:rj	!	!	!LO:DY:b:rj	!	!	!LO:DY:b:rj	!	!LO:DY:b:rj
4D\yy	f	4D\yy	f	8D\yy	.	f	8f\	.	f	8g/	.	.	8bn\	speł-	f	4Bnyy 4D/yy	4ryy	f	4fyy 4G/yy	f	4bn\yy	f	4D\yy	.	4F/yy	4Bn/yy	.	4BB-/yy	4BB-\yy	f	.	.	4Bn/yy	4G\yy	.	4g/yy	4f\yy	f	4bX/yy	4g\yy	f	4gg/yy	4ff\yy	f	4bbn\yy	f
!	!	!	!	!LO:TX:a:t=P:łamanie systemu zgodne z całą partyturą:problem	!	!	!	!	!	!	!	!	!	!	!	!	!	!	!	!	!	!	!	!	!	!	!	!	!	!	!	!	!	!	!	!	!	!	!	!	!	!	!	!	!	!
.	.	.	.	8D\yy	.	.	8f\	.	.	8g/	.	.	8b\	-nia	.	.	.	.	.	.	.	.	.	.	.	.	.	.	.	.	.	.	.	.	.	.	.	.	.	.	.	.	.	.	.	.
!!LO:PB:g=original
*	*	*	*	*	*	*	*	*	*	*	*	*	*	*	*	*v	*v	*	*	*	*	*	*	*	*	*	*	*	*	*	*	*	*	*	*	*	*	*	*	*	*	*	*	*	*	*
=43	=43	=43	=43	=43	=43	=43	=43	=43	=43	=43	=43	=43	=43	=43	=43	=43	=43	=43	=43	=43	=43	=43	=43	=43	=43	=43	=43	=43	=43	=43	=43	=43	=43	=43	=43	=43	=43	=43	=43	=43	=43	=43	=43	=43	=43
4C/yy	.	4C/yy	.	2C/yy	.	.	2e-\	.	.	2g/	.	.	(>8.cc\L	za-	.	2cyy 2C/yy	.	2e-yy 2G/yy	.	(>8.cc\Lyy	.	2C/yy	.	2E-/yy	2c/yy	.	2BB-/yy	2BB-\yy	.	2.ryy	.	2c/yy	2G\yy	.	2g/yy	2e-\yy	.	2cc/yy	2g\yy	.	2gg/yy	2ee-\yy	.	(>8.ccc\Lyy	.
.	.	.	.	.	.	.	.	.	.	.	.	.	16ee-\Jk	.	.	.	.	.	.	16ee-\Jk)yy	.	.	.	.	.	.	.	.	.	.	.	.	.	.	.	.	.	.	.	.	.	.	.	16ddd\Jk)yy	.
4C/yy	.	4C/yy	.	.	.	.	.	.	.	.	.	.	4ee-\)	.	.	.	.	.	.	4ee-\yy	.	.	.	.	.	.	.	.	.	.	.	.	.	.	.	.	.	.	.	.	.	.	.	4eee-\yy	.
!	!LO:DY:b:rj	!	!LO:DY:b:rj	!	!	!	!	!	!	!	!	!	!	!	!LO:DY:a:rj	!	!	!	!	!	!LO:DY:a:rj	!	!	!	!	!	!	!	!	!	!	!	!	!LO:DY:b:rj	!	!	!LO:DY:b:rj	!	!	!LO:DY:b:rj	!	!	!LO:DY:b:rj	!	!LO:DY:b:rj
4F\yy	p	4F\yy	p	4F\yy	.	.	4e- 4c\	.	.	4f/	.	.	4an/	-kon	p	4F/yy	.	4e-yy 4c/yy	.	4an/yy	p	4ryy	.	4ryy	4ryy	.	4ryy	4ryy	.	.	.	4F/yy	4F\yy	p	4f/yy	4f\yy	p	4cc/yy	4a\yy	p	4ff/yy	4ee-\yy	p	4aan\yy	p
*	*	*	*	*	*	*	*	*	*	*	*	*	*	*	*	*	*	*	*	*	*	*	*	*	*	*	*	*	*	*	*	*v	*v	*	*	*	*	*	*	*	*	*	*	*	*
*	*	*	*	*	*	*	*	*	*	*	*	*	*	*	*	*	*	*	*	*	*	*	*	*	*	*	*v	*v	*	*	*	*	*	*v	*v	*	*	*	*	*	*	*	*	*
=44	=44	=44	=44	=44	=44	=44	=44	=44	=44	=44	=44	=44	=44	=44	=44	=44	=44	=44	=44	=44	=44	=44	=44	=44	=44	=44	=44	=44	=44	=44	=44	=44	=44	=44	=44	=44	=44	=44	=44	=44	=44	=44
4BB-/yy	.	4BB-/yy	.	4BB-/yy	.	.	4d\	.	.	4f/	.	.	(>8cc\L	sta-	.	4F/yy	.	(<8e-/Lyy	.	(>8cc\Lyy	.	4ryy	.	4ryy	4ryy	.	4ryy	.	4ryy	.	2Fyy 2BB-/yy	.	2fyy 2B-/yy	.	8cc/Lyy	(>8a\Lyy	.	2ff/yy	8ee-\Lyy	.	(>8ccc\Lyy	.
.	.	.	.	.	.	.	.	.	.	.	.	.	8b-\J)	.	.	.	.	8dJyy 8B-/)yy	.	8b-\J)yy	.	.	.	.	.	.	.	.	.	.	.	.	.	.	8b-/Jyy	8b-\J)yy	.	.	8dd\Jyy	.	8bb-\J)yy	.
4B-\yy	.	4B-\yy	.	4BB-/yy	.	.	4d\	.	.	4f/	.	.	4b-\	-ry	.	4F/yy	.	4dyy 4B-/yy	.	4b-\yy	.	4ryy	.	4ryy	4ryy	.	4ryy	.	4ryy	.	.	.	.	.	4b-/yy	4b-\yy	.	.	4dd\yy	.	4bb-\yy	.
*	*	*	*	*	*	*	*	*	*	*	*	*	*	*	*	*	*	*	*	*	*	*	*	*	*	*	*	*	*	*	*	*	*	*	*v	*v	*	*	*	*	*	*
*	*	*	*	*	*	*	*	*	*	*	*	*	*	*	*	*	*	*	*	*	*	*	*	*	*	*	*	*	*	*	*	*	*	*	*	*	*v	*v	*	*	*
=!|:	=!|:	=!|:	=!|:	=!|:	=!|:	=!|:	=!|:	=!|:	=!|:	=!|:	=!|:	=!|:	=!|:	=!|:	=!|:	=!|:	=!|:	=!|:	=!|:	=!|:	=!|:	=!|:	=!|:	=!|:	=!|:	=!|:	=!|:	=!|:	=!|:	=!|:	=!|:	=!|:	=!|:	=!|:	=!|:	=!|:	=!|:	=!|:	=!|:	=!|:
*>C	*	*>C	*	*>C	*	*	*>C	*	*	*>C	*	*	*>C	*	*	*>C	*	*>C	*	*>C	*	*>C	*	*>C	*>C	*	*>C	*	*>C	*	*>C	*	*>C	*	*>C	*	*>C	*	*>C	*
!	!	!	!	!	!	!	!	!	!	!	!	!	!	!	!	!	!	!	!	!	!	!	!	!	!	!	!	!	!	!	!	!	!	!	!	!	!	!	!	!LO:DY:a
!	!LO:DY:b:rj	!	!LO:DY:b:rj	!	!	!LO:DY:b:rj	!	!	!LO:DY:b:rj	!	!	!	!	!	!LO:DY:a:rj	!	!LO:DY:b:rj	!	!LO:DY:b:rj	!	!LO:DY:b:rj	!	!LO:DY:b:rj	!	!	!LO:DY:b:rj	!	!	!	!LO:DY:b:rj	!	!LO:DY:b:rj	!	!	!	!LO:DY:b:rj	!	!LO:DY:b:rj	!	!LO:DY:b:rj
8.B-\L|	f	8.B-\L|	f	8.B-\	.	f	8.B-\	Ta-	f	8.b-\	.	.	8.b-\	Ta-	f	8.B-/L|	.	8.b-\L|	f	8.b-\L|	f	8.B-\L	f	8.B-\L	8.b-\L|	f	4ryy	.	8.b-X\L|	f	8.B-\L|	f	4r	.	8.b-\L	f	8.bb-L 8.b-\	f	8.bb-\L|	f
16c\Jk|	.	16c\Jk|	.	16c\	.	.	16c\	-ie-	.	16cc\	.	.	16cc\	-ie-	.	16c/Jk|	.	16cc\Jk|	.	16cc\Jk|	.	16c\Jk	.	16c\Jk	16cc\Jk|	.	.	.	16cc\Jk|	.	16c\Jk|	.	.	.	16cc\Jk	.	16cccJk 16cc\	.	16ccc\Jk|	.
=45	=45	=45	=45	=45	=45	=45	=45	=45	=45	=45	=45	=45	=45	=45	=45	=45	=45	=45	=45	=45	=45	=45	=45	=45	=45	=45	=45	=45	=45	=45	=45	=45	=45	=45	=45	=45	=45	=45	=45	=45
*	*	*	*	*	*	*	*	*	*	*	*	*	*	*	*	*	*	*	*	*	*	*	*	*	*	*	*	*	*	*	*^	*	*	*	*^	*	*	*	*	*
!	!LO:DY:b:rj	!	!LO:DY:b:rj	!	!	!	!	!	!	!	!	!	!	!	!	!	!	!	!	!	!LO:DY:a:rj	!	!LO:DY:b:rj	!	!	!LO:DY:b:rj	!	!	!	!LO:DY:b:rj	!	!	!LO:DY:b:rj	!	!LO:DY:b:rj	!	!	!LO:DY:b:rj	!	!	!	!LO:DY:a:rj
2B-\	p	2B-\	p	4B-\	.	.	4B-\	-mni-	.	4b-\	.	.	4b-\	-mni-	.	4B-/	.	(>4b-\	.	(>4b-\	p	4B-\	p	4B-\	4b-\	p	2.ryy	.	4b-X\	p	2B-/	2B-\	p	2.B- 2.BB-/	p	4b-/	4b-\	p	(>4bb- 4b-\|	.	4bb-\|	p
!	!	!	!	!	!	!LO:DY:b:rj	!	!	!LO:DY:b:rj	!	!	!	!	!	!LO:DY:a:rj	!	!LO:DY:b:rj	!	!LO:DY:b:rj	!	!	!	!	!	!	!	!	!	!	!	!	!	!	!	!	!	!	!	!	!LO:DY:b:rj	!	!
.	.	.	.	4B-\	.	p	4B-\	-cę	p	4a-/	.	.	4cc\	-cę	p	(<[>2B-/	p	4a-/	p	4cc\	.	4r	.	4r	4r	.	.	.	4r	.	.	.	.	.	.	4cc/	4a-\	.	4aa- 4cc\	p	(>4ccc\	.
4BB-/	.	4BB-/	.	4BB-/	.	.	4B-\	co	.	4f/	.	.	4dd\	co	.	.	.	4f/)	.	4dd\	.	4r	.	4r	4r	.	.	.	4r	.	4A-/	4BB-\	.	.	.	4dd/	4f\	.	4ff 4dd\	.	4ddd\	.
=46	=46	=46	=46	=46	=46	=46	=46	=46	=46	=46	=46	=46	=46	=46	=46	=46	=46	=46	=46	=46	=46	=46	=46	=46	=46	=46	=46	=46	=46	=46	=46	=46	=46	=46	=46	=46	=46	=46	=46	=46	=46	=46
*	*	*	*	*	*	*	*	*	*	*	*	*	*	*	*	*	*	*	*	*	*	*	*	*	*	*	*	*	*	*	*	*	*	*	*	*	*	*	*^	*	*	*
2E-\	.	2E-\	.	4E-\	.	.	4B-\	grun-	.	4g/	.	.	8.ee-\L	grun-	.	2B-] 2E-/)	.	2g/	.	8.ee-\L)	.	4r	.	4r	4r	.	2.ryy	.	4r	.	2G/	2E-\	.	2B- 2E-/	.	4ee-/	2g\	.	2gg/)	2ee-\	.	4eee-\)	.
.	.	.	.	.	.	.	.	.	.	.	.	.	16b-\Jk	.	.	.	.	.	.	16b-\Jk	.	.	.	.	.	.	.	.	.	.	.	.	.	.	.	.	.	.	.	.	.	.	.
.	.	.	.	4E-\	.	.	4B-\	-tem	.	4g/	.	.	4b-\	-tem	.	.	.	.	.	4b-\	.	4r	.	4r	4r	.	.	.	4r	.	.	.	.	.	.	4b-/	.	.	.	.	.	4bb-\	.
!	!	!	!	!	!	!	!	!	!	!	!	!	!	!	!	!	!	!	!	!	!	!	!	!	!	!	!	!	!	!	!	!	!	!	!	!	!	!	!	!	!	!	!LO:DY:a
!	!LO:DY:b:rj	!	!LO:DY:b:rj	!	!	!LO:DY:b:rj	!	!	!LO:DY:b:rj	!	!	!	!	!	!LO:DY:a:rj	!	!LO:DY:b:rj	!	!LO:DY:b:rj	!	!LO:DY:b:rj	!	!LO:DY:b:rj	!	!	!LO:DY:b:rj	!	!	!	!	!	!	!LO:DY:b:rj	!	!	!	!	!LO:DY:b:rj	!	!	!LO:DY:b:rj	!	!LO:DY:b:rj
8.B-\L|	f	8.B-\L|	f	8.B-\	.	f	8.B-\	iest	f	8.b-\	.	.	8.b-\	iest	f	8.B-/L	f	8.b-\L|	f	8.b-\L|	f	8.B-\L	f	8.B-\L	8.b-\L	f	.	.	8.b-\L|	.	8.B-\L|	4rCCyy	f	4r	.	8.b-\L	4rByy	f	8.bb-L 8.b-\|	4rAyy	f	8.bb-\L|	f
16c\Jk|	.	16c\Jk|	.	16c\	.	.	16c\	.Cri-	.	16cc\	.	.	16cc\	Chri-	.	16c/Jk	.	16cc\Jk|	.	16cc\Jk|	.	16c\Jk	.	16c\Jk	16cc\Jk	.	.	.	16cc\Jk|	.	16c\Jk|	.	.	.	.	16cc\Jk	.	.	16cccJk 16cc\|	.	.	16ccc\Jk|	.
=47	=47	=47	=47	=47	=47	=47	=47	=47	=47	=47	=47	=47	=47	=47	=47	=47	=47	=47	=47	=47	=47	=47	=47	=47	=47	=47	=47	=47	=47	=47	=47	=47	=47	=47	=47	=47	=47	=47	=47	=47	=47	=47	=47
!	!	!	!	!	!	!	!	!	!	!	!	!	!	!	!LO:DY:a	!	!LO:DY:b:rj	!	!LO:DY:b:rj	!	!LO:DY:a:rj	!	!LO:DY:b:rj	!	!	!	!	!	!	!	!	!	!LO:DY:b:rj	!	!	!	!	!LO:DY:b:rj	!	!	!LO:DY:b:rj	!	!
2B-\	.	2B-\	.	2B-\	.	.	2B-\	-stu-	.	(<4b-/	.	.	(>4b-\	-stu-	p	4B-/	p	(>4b-\	p	(>4b-\	p	4B-\	p	4B-\	4b-\	p	2.ryy	.	4b-\	.	2B-/	2B-\	p	2.B- 2.BB-/	.	4b-/	4b-\	p	(>4bb- 4b-\	4rFyy	p	4bb-\|	p
.	.	.	.	.	.	.	.	.	.	4a-/)	.	.	4cc\)	.	.	[<4B-/	p	4a-/	p	4cc\	.	4r	.	4r	4r	.	.	.	4r	.	.	.	.	.	.	4cc/	2a-\	.	4aa- 4cc\	4rFyy	.	(>4ccc\	.
4BB-/	.	4BB-/	.	4BB-/	.	.	4A-\	-sa	.	4f/	.	.	4dd\	-sa	.	(<4f 4B-/]	.	4f/)	.	4dd\)	.	4r	.	4r	4r	.	.	.	4r	.	4A-/	4BB-\	.	.	.	4dd/	.	.	4ff/)	4dd\	.	4ddd\	.
!!LO:PB:g=original
=48	=48	=48	=48	=48	=48	=48	=48	=48	=48	=48	=48	=48	=48	=48	=48	=48	=48	=48	=48	=48	=48	=48	=48	=48	=48	=48	=48	=48	=48	=48	=48	=48	=48	=48	=48	=48	=48	=48	=48	=48	=48	=48	=48
*	*	*	*	*	*	*	*	*	*	*	*	*	*	*	*	*	*	*	*	*	*	*	*	*	*	*	*	*	*^	*	*	*	*	*^	*	*	*	*	*	*	*	*	*
2C/	.	2C/	.	4C/	.	.	4G/	wia-	.	4g/	.	.	4ee-\	wia-	.	2e- 2c\))	.	2g/	.	2ee-\	.	4r	.	4r	4r	.	2.ryy	.	4r	4rcyy	.	2e-\	2C\	.	2G/	2E-/	.	2ee-/	2g\	.	2gg/	2ee-\	.	2eee-\)	.
.	.	.	.	4C/	.	.	4G/	-ry	.	4g/	.	.	4ee-\	-ry	.	.	.	.	.	.	.	4r	.	4r	4r	.	.	.	4r	4rAyy	.	.	.	.	.	.	.	.	.	.	.	.	.	.	.
4D/	.	4D/	.	4D/	.	.	4f\	Rę-	.	4g/	.	.	4bn^<\	Rę-	.	4f 4d\	.	4g^</	.	4bn^>\	.	4D\	.	4Bn\	4f^<\	.	.	.	4g/	4g\	.	4d\	4D\	.	4G/	4G\	.	4bX/	4f\	.	4gg/	4ff\	.	(>4bbn^<\	.
=49	=49	=49	=49	=49	=49	=49	=49	=49	=49	=49	=49	=49	=49	=49	=49	=49	=49	=49	=49	=49	=49	=49	=49	=49	=49	=49	=49	=49	=49	=49	=49	=49	=49	=49	=49	=49	=49	=49	=49	=49	=49	=49	=49	=49	=49
4E-\	.	4E-\	.	2E-\	.	.	2e-\	-koj-	.	2g/	.	.	2cc\	-koj-	.	8r	.	8r	.	8r	.	2E-\	.	2.c\	2e-\	.	2.ryy	.	2.g/	2.g\	.	2.c/	2E-\	.	2.G/	2.G\	.	2cc/	2e-\	.	2gg/	2ee-\	.	(>2ccc\)	.
.	.	.	.	.	.	.	.	.	.	.	.	.	.	.	.	8e-\L	.	8g/L	.	8cc\L	.	.	.	.	.	.	.	.	.	.	.	.	.	.	.	.	.	.	.	.	.	.	.	.	.
4r	.	4r	.	.	.	.	.	.	.	.	.	.	.	.	.	8e-\	.	8g/	.	8cc\	.	.	.	.	.	.	.	.	.	.	.	.	.	.	.	.	.	.	.	.	.	.	.	.	.
.	.	.	.	.	.	.	.	.	.	.	.	.	.	.	.	8e-\J	.	8g/J	.	8cc\J	.	.	.	.	.	.	.	.	.	.	.	.	.	.	.	.	.	.	.	.	.	.	.	.	.
4En\	.	4En\	.	4En\	.	.	4c\	-mią	.	4g/	.	.	4b-X\	-mią	.	8r	.	8r	.	8r	.	4En\	.	.	4en\	.	.	.	.	.	.	.	4En\	.	.	.	.	4b-/	4g\	.	4gg/	4cc\	.	4bb-X\	.
.	.	.	.	.	.	.	.	.	.	.	.	.	.	.	.	8c\	.	8g/	.	8b-X\	.	.	.	.	.	.	.	.	.	.	.	.	.	.	.	.	.	.	.	.	.	.	.	.	.
*	*	*	*	*	*	*	*	*	*	*	*	*	*	*	*	*	*	*	*	*	*	*	*	*	*	*	*	*	*	*	*	*v	*v	*	*	*	*	*	*	*	*	*	*	*	*
=50	=50	=50	=50	=50	=50	=50	=50	=50	=50	=50	=50	=50	=50	=50	=50	=50	=50	=50	=50	=50	=50	=50	=50	=50	=50	=50	=50	=50	=50	=50	=50	=50	=50	=50	=50	=50	=50	=50	=50	=50	=50	=50	=50	=50
4F\	.	4F\	.	4.F\	.	.	4.c\	ła-	.	4.f/	.	.	4.a-\	ła-	.	8r	.	8r	.	8r	.	4.F\	.	4.c\	4.f\	.	2.ryy	.	4.f/	4.f\	.	4.c 4.F\	.	4.A-/	4.A-\	.	4.a-/	4.f\	.	4.ff/	4.cc\	.	4.aa-\)	.
.	.	.	.	.	.	.	.	.	.	.	.	.	.	.	.	8c\L	.	8f/L	.	8a-'</L	.	.	.	.	.	.	.	.	.	.	.	.	.	.	.	.	.	.	.	.	.	.	.	.
8r	.	8r	.	.	.	.	.	.	.	.	.	.	.	.	.	8c\J	.	8f/J	.	8a-'</J	.	.	.	.	.	.	.	.	.	.	.	.	.	.	.	.	.	.	.	.	.	.	.	.
!	!	!	!	!	!	!	!	!	!	!	!	!	!	!	!	!	!LO:DY:b:rj	!	!LO:DY:b:rj	!	!LO:DY:b:rj	!	!	!	!	!	!	!	!	!	!	!	!LO:DY:b:rj	!	!	!	!	!	!LO:DY:b:rj	!	!	!	!	!LO:DY:b:rj
(>8F\L	.	(>8F\L	.	8F\	.	.	8A-\	-ski	.	8a-/	.	.	8cc\	-ski	.	(<8A-/L	p	(<8a-/L	p	(<8cc/L	p	8r	.	8r	8r	.	.	.	8r	8rAyy	.	(>8A-L 8F\	p	8r	8rCyy	.	(>8ccL 8a-\	8rGyy	p	(>8aa-/L	8r	.	(>8ccc\L	p
8G\	.	8G\	.	8G\	.	.	8B-\	nie-	.	8g/	.	.	8b-\	nie-	.	8B-/	.	8g/	.	8b-/	.	4r	.	4r	4r	.	.	.	4r	4rAyy	.	8B- 8G\	.	4r	4rCyy	.	8b- 8g\	4rGyy	.	8gg/	4r	.	8bb-\	.
8A-\J)	.	8A-\J)	.	8A-\	.	.	8c\	-bios	.	8f/	.	.	8a-\	-bios	.	8c/J)	.	8f/J)	.	8a-/J)	.	.	.	.	.	.	.	.	.	.	.	8cJ 8A-\)	.	.	.	.	8a-J 8f\)	.	.	8ff/J)	.	.	8aa-\J)	.
*	*	*	*	*	*	*	*	*	*	*	*	*	*	*	*	*	*	*	*	*	*	*	*	*	*	*	*	*	*	*	*	*	*	*v	*v	*	*	*	*	*	*	*	*	*
*	*	*	*	*	*	*	*	*	*	*	*	*	*	*	*	*	*	*	*	*	*	*	*	*	*	*	*	*	*v	*v	*	*	*	*	*	*v	*v	*	*	*	*	*	*
=51	=51	=51	=51	=51	=51	=51	=51	=51	=51	=51	=51	=51	=51	=51	=51	=51	=51	=51	=51	=51	=51	=51	=51	=51	=51	=51	=51	=51	=51	=51	=51	=51	=51	=51	=51	=51	=51	=51	=51	=51	=51
8B-\	.	8B-\	.	8B-\	.	.	8B-\	i	.	8e-/	.	.	8g/	i	.	8B-/L	.	8e-/L	.	8g/L	.	2.r	.	2.r	2.r	.	2.ryy	.	2.r	.	2B-\	.	4r	.	(>8gL 8e-/	.	(>8ee-/L	[<2.b-\	.	(>8gg\L	.
8r	.	8r	.	8B-\	.	.	8B-\	świa-	.	8g/	.	.	8b-/	świa-	.	8B-/J	.	8g/J	.	8b-/J	.	.	.	.	.	.	.	.	.	.	.	.	.	.	8b-J 8g/	.	8gg/J	.	.	8bb-\J	.
8B-\	.	8B-\	.	4B-\	.	.	4B-\	-ta	.	4f/	.	.	4a-/	-ta	.	8r	.	8r	.	8r	.	.	.	.	.	.	.	.	.	.	.	.	4r	.	4a- 4f/	.	4ff/	.	.	4aa-\	.
8r	.	8r	.	.	.	.	.	.	.	.	.	.	.	.	.	8B-/	.	8f/	.	8a-/	.	.	.	.	.	.	.	.	.	.	.	.	.	.	.	.	.	.	.	.	.
8BB-/	.	8BB-/	.	4BB-/	.	.	4B-\	zba-	.	4d/	.	.	4f/	zba-	.	8r	.	8r	.	8r	.	.	.	.	.	.	.	.	.	.	4B- 4BB-\	.	4B- 4BB-/	.	4f 4d/)	.	4dd/	.	.	4ff\)	.
8r	.	8r	.	.	.	.	.	.	.	.	.	.	.	.	.	8B-/	.	8d/	.	8f/	.	.	.	.	.	.	.	.	.	.	.	.	.	.	.	.	.	.	.	.	.
=	=	=	=	=	=	=	=	=	=	=	=	=	=	=	=	=	=	=	=	=	=	=	=	=	=	=	=	=	=	=	=	=	=	=	=	=	=	=	=	=	=
!!LO:TX:a:Bi:t=1ma
*>C1	*	*>C1	*	*>C1	*	*	*>C1	*	*	*>C1	*	*	*>C1	*	*	*>C1	*	*>C1	*	*>C1	*	*>C1	*	*>C1	*>C1	*	*>C1	*	*>C1	*	*>C1	*	*>C1	*	*>C1	*	*>C1	*	*	*>C1	*
2E-\	.	2E-\	.	4E-\	.	.	4B-\	-wie-	.	(<8.f/L	.	.	(<8.a-/L	-wie-	.	2B-/	.	(<8.f/L	.	(<8.a-/L	.	4r	.	4r	4r	.	2ryy	.	4r	.	2B- 2E-\	.	2B- 2E-/	.	(<8.a-L 8.f/	.	8.ff/L)	2b-\]	.	8.aa-\L	.
.	.	.	.	.	.	.	.	.	.	16e-/Jk)	.	.	16g/Jk	.	.	.	.	16e-/Jk)	.	16g/Jk)	.	.	.	.	.	.	.	.	.	.	.	.	.	.	16gJk 16e-/)	.	16ee-/Jk	.	.	16gg\Jk	.
.	.	.	.	4E-\	.	.	4B-\	-niem	.	4e-/	.	.	4g/)	-niem	.	.	.	4e-/	.	4g/	.	4r	.	4r	4r	.	.	.	4r	.	.	.	.	.	4f 4d/	.	4ee-/	.	.	4gg\	.
=52:|!	=52:|!	=52:|!	=52:|!	=52:|!	=52:|!	=52:|!	=52:|!	=52:|!	=52:|!	=52:|!	=52:|!	=52:|!	=52:|!	=52:|!	=52:|!	=52:|!	=52:|!	=52:|!	=52:|!	=52:|!	=52:|!	=52:|!	=52:|!	=52:|!	=52:|!	=52:|!	=52:|!	=52:|!	=52:|!	=52:|!	=52:|!	=52:|!	=52:|!	=52:|!	=52:|!	=52:|!	=52:|!	=52:|!	=52:|!	=52:|!	=52:|!
*	*	*	*	*	*	*	*^	*	*	*	*	*	*	*	*	*^	*	*	*	*	*	*	*	*	*	*	*	*	*	*	*	*	*	*	*	*	*	*	*	*	*
!!LO:TX:a:Bi:t=2
*>C2	*	*>C2	*	*>C2	*	*	*>C2	*	*	*	*>C2	*	*	*>C2	*	*	*>C2	*	*	*>C2	*	*>C2	*	*>C2	*	*>C2	*>C2	*	*>C2	*	*>C2	*	*>C2	*	*>C2	*	*>C2	*	*>C2	*	*	*>C2	*
4E-\	.	4E-\	.	4E-\	.	.	4B-/	8.A-\L	-wie-	.	(<8.d/L	.	.	8.f/L	-wie-	.	2B-/	(>8.A-\L	.	8.d/L	.	(<8.f/L	.	2.r	.	2.r	2.r	.	2.ryy	.	4r	.	4.B- 4.E-\	.	[>2.e- [2<.E-/	.	(<8.a-L 8.f/	.	(>8.dd/L	4b-\	.	(>8.ff\L	.
.	.	.	.	.	.	.	.	16G\Jk	.	.	16e-/Jk)	.	.	16e-/Jk	.	.	.	16G\Jk)	.	16e-/Jk	.	16e-/Jk)	.	.	.	.	.	.	.	.	.	.	.	.	.	.	16gJk 16e-/)	.	16ee-/Jk)	.	.	16ee-\Jk)	.
!	!	!	!	!	!	!	!	!	!	!	!	!	!	!	!	!	!	!	!	!	!	!	!	!	!	!	!	!	!	!	!	!LO:DY:a	!	!	!	!	!	!	!	!	!	!	!
4EE-/	.	4EE-/	.	4E-\	.	.	4B-/	4G\	-niem	.	4e-/	.	.	4e-/	-niem	.	.	4G\	.	4e-/	.	4e-/	.	.	.	.	.	.	.	.	8r	p	.	.	.	.	8g 8e-'</	.	8ee-'>/	8b-\	.	8ee-'>\	.
.	.	.	.	.	.	.	.	.	.	.	.	.	.	.	.	.	.	.	.	.	.	.	.	.	.	.	.	.	.	.	(<8gL 8e-/	.	[>4.E- [<4.EE-/	.	.	.	(<8gL 8e-/	.	8ee-/L	8rAyy	.	(>8ee-\L	.
4r	.	4r	.	4r	.	.	4r	4ryy	.	.	4r	.	.	4r	.	.	4r	4r	.	4r	.	4r	.	.	.	.	.	.	.	.	8a- 8f/	.	.	.	.	.	8a- 8f/	.	8dd/	4rAyy	.	8dd\	.
.	.	.	.	.	.	.	.	.	.	.	.	.	.	.	.	.	.	.	.	.	.	.	.	.	.	.	.	.	.	.	8b-J 8g/)	.	.	.	.	.	8b-J 8g/)	.	8dd-X/J	.	.	8dd-X\J)	.
*	*	*	*	*	*	*	*v	*v	*	*	*	*	*	*	*	*	*v	*v	*	*	*	*	*	*	*	*	*	*	*	*	*	*	*	*	*	*	*	*	*v	*v	*	*	*
=53	=53	=53	=53	=53	=53	=53	=53	=53	=53	=53	=53	=53	=53	=53	=53	=53	=53	=53	=53	=53	=53	=53	=53	=53	=53	=53	=53	=53	=53	=53	=53	=53	=53	=53	=53	=53	=53	=53	=53	=53
*	*	*	*	*	*	*	*	*	*	*	*	*	*	*	*	*	*	*	*	*	*	*	*	*	*	*	*	*	*^	*	*	*	*	*	*^	*	*	*	*	*
*>D	*	*>D	*	*>D	*	*	*>D	*	*	*>D	*	*	*>D	*	*	*>D	*	*>D	*	*>D	*	*>D	*	*>D	*>D	*	*>D	*	*>D	*	*	*>D	*	*>D	*	*>D	*	*	*>D	*	*>D	*
2.r	.	2.r	.	2.r	.	.	2.r	.	.	2.r	.	.	2.r	.	.	2.r	.	2.r	.	2.r	.	2.r	.	2.r	2.r	.	2.ryy	.	(>2a-/	2a-\	.	2.E-] 2.EE-/]	.	2.e-] 2.E-/]	.	2a-/	(>2a-\	.	2cc/	.	2cc\	.
.	.	.	.	.	.	.	.	.	.	.	.	.	.	.	.	.	.	.	.	.	.	.	.	.	.	.	.	.	4a-/	4f\	.	.	.	.	.	4a-/	4f\	.	4ddt>/	.	4ddt>\	.
!!LO:PB:g=original
*	*	*	*	*	*	*	*	*	*	*	*	*	*	*	*	*	*	*	*	*	*	*	*	*	*	*	*	*	*v	*v	*	*	*	*	*	*v	*v	*	*	*	*	*
=54	=54	=54	=54	=54	=54	=54	=54	=54	=54	=54	=54	=54	=54	=54	=54	=54	=54	=54	=54	=54	=54	=54	=54	=54	=54	=54	=54	=54	=54	=54	=54	=54	=54	=54	=54	=54	=54	=54	=54	=54
*^	*	*^	*	*	*	*	*	*	*	*	*	*	*	*	*	*	*	*	*	*	*	*	*	*	*	*	*	*	*	*	*	*	*	*	*	*	*	*	*	*
4r	4ryy	.	4r	4ryy	.	2.ryy	.	.	2.ryy	.	.	2.ryy	.	.	2.r	.	.	4r	.	4r	.	4r	.	2.r	.	2.r	2.r	.	2.ryy	.	4.g 4.e-/)	.	4.B- 4.E-\	.	4.b- 4.e- 4.E-/	.	[>4g [<4e-/)	.	(>16ee-\LL	.	(>16ee-\LL	.
.	.	.	.	.	.	.	.	.	.	.	.	.	.	.	.	.	.	.	.	.	.	.	.	.	.	.	.	.	.	.	.	.	.	.	.	.	.	.	16gg\	.	16gg\	.
.	.	.	.	.	.	.	.	.	.	.	.	.	.	.	.	.	.	.	.	.	.	.	.	.	.	.	.	.	.	.	.	.	.	.	.	.	.	.	16bb-\	.	16bb-\	.
.	.	.	.	.	.	.	.	.	.	.	.	.	.	.	.	.	.	.	.	.	.	.	.	.	.	.	.	.	.	.	.	.	.	.	.	.	.	.	16gg\JJ	.	16gg\JJ	.
!	!	!LO:DY:b	!	!	!LO:DY:b	!	!	!	!	!	!	!	!	!	!	!	!	!	!	!	!	!	!	!	!	!	!	!	!	!	!	!	!	!	!	!	!	!	!	!	!	!
8r	8ryy	pp	8r	8ryy	pp	.	.	.	.	.	.	.	.	.	.	.	.	8r	.	8r	.	8r	.	.	.	.	.	.	.	.	.	.	.	.	.	.	8g] 8e-/]	.	8ee-\)	.	8eee-\)	.
!	!	!	!	!	!	!	!	!	!	!	!	!	!	!	!	!	!	!	!	!	!	!	!LO:DY:b:rj	!	!	!	!	!	!	!	!	!	!	!	!	!	!	!	!	!	!	!
(>4.B-/	[<4.E-\	.	(>4.B-/	[<4.E-\	.	.	.	.	.	.	.	.	.	.	.	.	.	(>8e-\L	.	(<8e-/L	.	(<8g/L	pp	.	.	.	.	.	.	.	8r	.	8r	.	8r	.	8r	.	8r	.	8r	.
.	.	.	.	.	.	.	.	.	.	.	.	.	.	.	.	.	.	8d\	.	8f/	.	8a-/	.	.	.	.	.	.	.	.	4r	.	4r	.	4r	.	4r	.	4r	.	4r	.
.	.	.	.	.	.	.	.	.	.	.	.	.	.	.	.	.	.	8d-X\J0	.	8g/J)	.	8b-/J)	.	.	.	.	.	.	.	.	.	.	.	.	.	.	.	.	.	.	.	.
=55	=55	=55	=55	=55	=55	=55	=55	=55	=55	=55	=55	=55	=55	=55	=55	=55	=55	=55	=55	=55	=55	=55	=55	=55	=55	=55	=55	=55	=55	=55	=55	=55	=55	=55	=55	=55	=55	=55	=55	=55	=55	=55
2A-/	2.E-\_<	.	2A-/	2.E-\_<	.	2.ryy	.	.	2.ryy	.	.	2.ryy	.	.	2.r	.	.	(>2c\	.	(>2e-/	.	(>2a-/	.	2.r	.	2.r	2.r	.	2.ryy	.	2.r	.	2.r	.	2.r	.	2.r	.	2.r	.	2.r	.
4F/)	.	.	4F/)	.	.	.	.	.	.	.	.	.	.	.	.	.	.	4A-/)	.	4c-X/)	.	4d/	.	.	.	.	.	.	.	.	.	.	.	.	.	.	.	.	.	.	.	.
*v	*v	*	*v	*v	*	*	*	*	*	*	*	*	*	*	*	*	*	*	*	*	*	*	*	*	*	*	*	*	*	*	*	*	*	*	*	*	*	*	*	*	*	*
=56	=56	=56	=56	=56	=56	=56	=56	=56	=56	=56	=56	=56	=56	=56	=56	=56	=56	=56	=56	=56	=56	=56	=56	=56	=56	=56	=56	=56	=56	=56	=56	=56	=56	=56	=56	=56	=56	=56	=56	=56
4E-\]	.	4E-\]	.	2.ryy	.	.	2.ryy	.	.	2.ryy	.	.	2.ryy	.	.	4G/	.	4B-/	.	4e-/	.	2.r)	.	2.r	2.r	.	2.ryy	.	2.r	.	2.r	.	2.r	.	2.r	.	2.r	.	2.r	.
!	!	!	!	!	!	!	!	!	!	!	!	!	!	!	!	!LO:TX:b:Bi:t=pizz:rj	!	!	!	!	!	!	!	!	!	!	!	!	!	!	!	!	!	!	!	!	!	!	!	!
!LO:TX:b:Bi:t=pizz:rj	!	!LO:TX:b:Bi:t=pizz:rj	!	!	!	!	!	!	!	!	!	!	!	!	!	!	!	!	!	!	!	!	!	!	!	!	!	!	!	!	!	!	!	!	!	!	!	!	!	!
4E-\	.	4E-\	.	.	.	.	.	.	.	.	.	.	.	.	.	4e-\	.	4r	.	4r	.	.	.	.	.	.	.	.	.	.	.	.	.	.	.	.	.	.	.	.
!	!	!	!	!	!	!	!	!	!	!	!	!	!	!	!	!	!	!	!	!LO:TX:b:Bi:t=pizz:rj	!	!	!	!	!	!	!	!	!	!	!	!	!	!	!	!	!	!	!	!
4BB-/	.	4BB-/	.	.	.	.	.	.	.	.	.	.	.	.	.	4B-\	.	4r	.	4r	.	.	.	.	.	.	.	.	.	.	.	.	.	.	.	.	.	.	.	.
=57	=57	=57	=57	=57	=57	=57	=57	=57	=57	=57	=57	=57	=57	=57	=57	=57	=57	=57	=57	=57	=57	=57	=57	=57	=57	=57	=57	=57	=57	=57	=57	=57	=57	=57	=57	=57	=57	=57	=57	=57
4GG/	.	4GG/	.	2.ryy	.	.	2.ryy	.	.	2.ryy	.	.	2.ryy	.	.	4G/	.	4B-/	.	4e- 4G/	.	2.r	.	2.r	2.r	.	2.ryy	.	2.r	.	2.r	.	2.r	.	2.r	.	2.r	.	2.r	.
4BB-/	.	4BB-/	.	.	.	.	.	.	.	.	.	.	.	.	.	4B-/	.	4r	.	4r	.	.	.	.	.	.	.	.	.	.	.	.	.	.	.	.	.	.	.	.
4GG/	.	4GG/	.	.	.	.	.	.	.	.	.	.	.	.	.	4G/	.	4r	.	4r	.	.	.	.	.	.	.	.	.	.	.	.	.	.	.	.	.	.	.	.
=58	=58	=58	=58	=58	=58	=58	=58	=58	=58	=58	=58	=58	=58	=58	=58	=58	=58	=58	=58	=58	=58	=58	=58	=58	=58	=58	=58	=58	=58	=58	=58	=58	=58	=58	=58	=58	=58	=58	=58	=58
4EE-/	.	4EE-/	.	2.ryy	.	.	2.ryy	.	.	2.ryy	.	.	2.ryy	.	.	4E-/	.	4B-/	.	4e- 4G/	.	2.r	.	2.r	2.r	.	2.ryy	.	4r	.	4r	.	4r	.	4r	.	4r	.	2.r	.
4r	.	4r	.	.	.	.	.	.	.	.	.	.	.	.	.	4r	.	4r	.	4r	.	.	.	.	.	.	.	.	4r	.	4r	.	4r	.	4r	.	4r	.	.	.
4r	.	4r	.	.	.	.	.	.	.	.	.	.	.	.	.	4r	.	4r	.	4r	.	.	.	.	.	.	.	.	8.r	.	8.r	.	8.r	.	8.r	.	8.r	.	.	.
!	!	!	!	!	!	!	!	!	!	!	!	!	!	!	!	!	!	!	!	!	!	!	!	!	!	!	!	!	!	!	!	!	!	!	!	!	!	!LO:DY:b:rj	!	!
.	.	.	.	.	.	.	.	.	.	.	.	.	.	.	.	.	.	.	.	.	.	.	.	.	.	.	.	.	16g 16e-/	.	16B-X 16E-\	.	16e- 16G/	.	16b- 16g/	.	16gg 16ee-\	ff	.	.
=59	=59	=59	=59	=59	=59	=59	=59	=59	=59	=59	=59	=59	=59	=59	=59	=59	=59	=59	=59	=59	=59	=59	=59	=59	=59	=59	=59	=59	=59	=59	=59	=59	=59	=59	=59	=59	=59	=59	=59	=59
!	!	!	!	!	!	!	!	!	!	!	!	!	!	!	!	!LO:TX:b:Bi:t=arco	!	!	!	!LO:TX:b:Bi:t=arco	!	!	!	!	!	!	!	!	!	!	!	!	!	!	!	!	!	!	!	!
2.r	.	2.r	.	2.ryy	.	.	2.ryy	.	.	2.ryy	.	.	2.ryy	.	.	2.r	.	2.r	.	2.r	.	2.r	.	2.r	2.r	.	2.ryy	.	2.g 2.e-/	.	[>2.B- [<2.E-\	.	[>2.e- [<2.G/	.	(>2.b- &(<2.g/	.	(>2.gg 2.ee-\	.	2.r	.
=60	=60	=60	=60	=60	=60	=60	=60	=60	=60	=60	=60	=60	=60	=60	=60	=60	=60	=60	=60	=60	=60	=60	=60	=60	=60	=60	=60	=60	=60	=60	=60	=60	=60	=60	=60	=60	=60	=60	=60	=60
*	*	*	*	*	*	*	*	*	*	*	*	*	*	*	*	*	*	*	*	*	*	*	*	*	*	*	*	*	*^	*	*	*	*	*	*	*	*	*	*	*
!LO:TX:a:Bi:t=arco:rj	!	!LO:TX:a:Bi:t=arco:rj	!	!	!	!	!	!	!	!	!	!	!	!	!	!	!	!	!	!	!	!	!	!	!	!	!	!	!	!	!	!	!	!	!	!	!	!	!	!	!
!	!	!	!	!	!	!	!	!	!	!	!	!	!	!	!	!	!	!	!	!	!	!	!	!	!	!	!	!	!	!	!	!	!	!	!	!	!LO:S:s=1:note:problem:note-level slur	!	!	!	!
!	!	!	!	!	!	!	!	!	!	!	!	!	!	!	!	!	!	!	!	!	!	!	!	!	!	!	!	!	!	!	!	!	!	!	!	!	!LO:S:s=2:note:problem:note-level slur	!	!	!	!
!	!LO:DY:b:rj	!	!LO:DY:b:rj	!	!	!	!	!	!	!	!	!	!	!	!	!	!	!	!	!	!LO:DY:b:rj	!	!	!	!	!LO:DY:b:rj	!	!	!	!	!	!	!	!	!	!	!	!	!	!	!LO:DY:b:rj
4E-\	ff	4E-\	ff	2.ryy	.	.	2.ryy	.	.	2.ryy	.	.	2.ryy	.	.	4g 4B- 4E-\	.	4gg 4b- 4e-\	.	4eee- 4ee-\	ff	4E-\	.	4G/	4e-\	ff	2.ryy	.	4e-/	4e-\	.	4B-] 4E-\]	.	4e-] 4G/]	.	4g) 4e-/&)	.	4ee- 4b-\)	.	4eee-\	ff
4r	.	4r	.	.	.	.	.	.	.	.	.	.	.	.	.	4r	.	4r	.	4r	.	4r	.	4r	4r	.	.	.	4r	4ryy	.	4r	.	4r	.	4r	.	4r	.	4r	.
4r;>	.	4r;>	.	.	.	.	.	.	.	.	.	.	.	.	.	4r;>	.	4r;>	.	4r;>	.	4r;>	.	4r;>	4r;>	.	.	.	4r;>	4ryy	.	4r;>	.	4r;>	.	4r;>	.	4r;>	.	4r;>	.
*	*	*	*	*	*	*	*	*	*	*	*	*	*	*	*	*	*	*	*	*	*	*	*	*	*	*	*	*	*v	*v	*	*	*	*	*	*	*	*	*	*	*
==	==	==	==	==	==	==	==	==	==	==	==	==	==	==	==	==	==	==	==	==	==	==	==	==	==	==	==	==	==	==	==	==	==	==	==	==	==	==	==	==
*-	*-	*-	*-	*-	*-	*-	*-	*-	*-	*-	*-	*-	*-	*-	*-	*-	*-	*-	*-	*-	*-	*-	*-	*-	*-	*-	*-	*-	*-	*-	*-	*-	*-	*-	*-	*-	*-	*-	*-	*-
!!title: @{OTL};
!!!RDF**kern: > = above
!!!RDF**kern: < = below
!!!RDF**kern: N = linked
!!!RDF**kern: i = editorial accidental
!!!EED: Wojciech Jakubiak-Danek
!!!EST: 2021-04-23
!!!URL-scan: http://repozytorium.nifc.pl/skany/pl-wtm-nut--r1542
!!!ONB-nifc: UWAGA: części Mszy: 1. Kyrie, 2. Gloria, 3. Graduale, 4. Credo, 5. Offertorium, 6. Sanctus, 7. Benedictus, 8. Agnus Dei
!!!ENC: Marcin Jachim
!!!END: 2021-04-08
!!!RDF**kern: | = vertical stroke
